!!!COM: des Prez, Josquin
!!!CDT: ~1450-1521/08/27
!!!OTL@@LAT: Liber generationis
!!!OTL2@@LAT: Solomon autem genuit
!!!OTL3@@LAT: Et post transmigrationem Babylonis
!!!AGN: Motet
!!!SCT: NJE 19.13
!!!SCA: New Josquin Edition 19.13
!!!voices: 4
**kern	**text	**kern	**text	**kern	**text	**kern	**text
*staff4	*	*staff3	*	*staff2	*	*staff1	*
*Ivox	*	*Ivox	*	*Ivox	*	*Ivox	*
*I"Bassus	*	*I"Tenor	*	*I"Altus	*	*I"Discantus	*
*I'B	*	*I'T	*	*I'A	*	*I'D	*
*>[A,B]	*	*>[A,B]	*	*>[A,B]	*	*>[A,B]	*
*>Part1[A]	*	*>Part1[A]	*	*>Part1[A]	*	*>Part1[A]	*
*>Part2[B]	*	*>Part2[B]	*	*>Part2[B]	*	*>Part2[B]	*
*>A	*	*>A	*	*>A	*	*>A	*
*clefF4	*	*clefGv2	*	*clefGv2	*	*clefG2	*
*k[]	*	*k[]	*	*k[]	*	*k[]	*
*M2/1	*	*M2/1	*	*M2/1	*	*M2/1	*
*met(C|)	*	*met(C|)	*	*met(C|)	*	*met(C|)	*
=1-	=1-	=1-	=1-	=1-	=1-	=1-	=1-
0r	.	0r	.	0r	.	[0g	Li-
=2	=2	=2	=2	=2	=2	=2	=2
0r	.	0r	.	[0c	Li-	0g]	.
=3	=3	=3	=3	=3	=3	=3	=3
0r	.	0r	.	0c]	.	0e	-ber
=4	=4	=4	=4	=4	=4	=4	=4
0r	.	0r	.	[0A	-ber	1r	.
.	.	.	.	.	.	[1f	ge-
=5	=5	=5	=5	=5	=5	=5	=5
0r	.	0r	.	0A]	.	1f]	.
.	.	.	.	.	.	1e	-ne-
=6	=6	=6	=6	=6	=6	=6	=6
0r	.	[0G	Li-	0B	ge-	1d	-ra-
.	.	.	.	.	.	1d	-ti-
=7	=7	=7	=7	=7	=7	=7	=7
[0C	Li-	0G]	.	1G	-ne-	1.e	-o-
.	.	.	.	[1c	-ra-	.	.
.	.	.	.	.	.	2f/	.
=8	=8	=8	=8	=8	=8	=8	=8
0C]	.	0E	-ber	1c]	.	0g	.
.	.	.	.	1c	-ti-	.	.
=9	=9	=9	=9	=9	=9	=9	=9
[0AA	-ber	1r	.	0c	-o-	1.a	.
.	.	[1F	ge-	.	.	.	.
.	.	.	.	.	.	2b\	.
=10	=10	=10	=10	=10	=10	=10	=10
0AA]	.	1F]	.	0A	-nis	0cc	.
.	.	1E	-ne-	.	.	.	.
=11	=11	=11	=11	=11	=11	=11	=11
0BB	ge-	1D	-ra-	1F	Ie-	0dd	.
.	.	1D	-ti-	1G	.	.	.
=12	=12	=12	=12	=12	=12	=12	=12
0AA	-ne-	1E	-o-	0A	.	1.cc	.
.	.	1F	.	.	.	.	.
.	.	.	.	.	.	4b\	.
.	.	.	.	.	.	4a/	.
=13	=13	=13	=13	=13	=13	=13	=13
1GG	-ra	0G	.	0d	.	0b	-nis
1GG	-ti-	.	.	.	.	.	.
=14	=14	=14	=14	=14	=14	=14	=14
1AA	-o-	0E	-nis	1.c	.	1r	.
[1C	.	.	.	.	.	1cc	Je-
.	.	.	.	4B\	.	.	.
.	.	.	.	4A/	.	.	.
=15	=15	=15	=15	=15	=15	=15	=15
2C/]	.	1r	.	2G/	-su	1cc	-su
4BB/	.	.	.	1A	Chri-	.	.
4AA/	.	.	.	.	.	.	.
1BB	.	1D	Ie-	.	.	1dd	Chri-
.	.	.	.	2G#i/	.	.	.
=16	=16	=16	=16	=16	=16	=16	=16
0AA	-nis	0E	-su	2.A/	.	1.cc	.
.	.	.	.	4B\	.	.	.
.	.	.	.	4c\	.	.	.
.	.	.	.	4d\	.	.	.
.	.	.	.	[2e\	.	4b\	.
.	.	.	.	.	.	4a/	.
=17	=17	=17	=17	=17	=17	=17	=17
1r	.	0G	Chri-	2e\]	.	2b\	.
.	.	.	.	4d\	.	1cc	.
.	.	.	.	4c\	.	.	.
1GG	Ie-	.	.	1d	.	.	.
.	.	.	.	.	.	2b\	.
=18	=18	=18	=18	=18	=18	=18	=18
1AA	-su	0E	-ti,	1c	-sti,	1.cc	-sti,
[1C	Chri-	.	.	1r	.	.	.
.	.	.	.	.	.	4b\	.
.	.	.	.	.	.	4a/	.
=19	=19	=19	=19	=19	=19	=19	=19
1C]	.	1r	.	0c	fi-	1g	.
[1AA	-si	1F	fi-	.	.	[1a	fi-
=20	=20	=20	=20	=20	=20	=20	=20
1AA]	.	1E	-li-	1c	-li-	1a]	.
[1BB	fi-	[1D	-i	[1d	-i	1f	.
=21	=21	=21	=21	=21	=21	=21	=21
1BB]	.	1D]	.	1d]	.	1g	-li-
1AA	-li-	[1E	Da-	2.c\	Da-	2a/	-i
.	.	.	.	.	.	[2cc\	Da-
.	.	.	.	4d\	.	.	.
=22	=22	=22	=22	=22	=22	=22	=22
1AA	-i	2E/]	.	2e\	.	2cc\]	.
.	.	2F/	.	2c\	.	4b\	.
.	.	.	.	.	.	4a/	.
1GG	Da-	1G	-vid,	1d	.	1b	.
=23	=23	=23	=23	=23	=23	=23	=23
2.AA/	-vid,	1r	.	0c	-vid,	1cc	-vid,
4BB/	.	.	.	.	.	.	.
1C	.	1E	fi-	.	.	1g	.
=24	=24	=24	=24	=24	=24	=24	=24
1AA	fi-	1F	.	0r	.	1a	.
1BB	.	[1G	.	.	.	1d	.
=25	=25	=25	=25	=25	=25	=25	=25
0C	.	1G]	.	0r	.	1r	.
.	.	1G	-li-	.	.	[1e	fi-
=26	=26	=26	=26	=26	=26	=26	=26
1C	-li-	0G	-i	1.c	fi-	1e]	.
[1C	-i	.	.	.	.	1e	-li-
.	.	.	.	2c\	-li-	.	.
=27	=27	=27	=27	=27	=27	=27	=27
1C]	.	1G	A-	1c	-i	1e	-i
[1D	.	[1F	.	2B\	A-	2.f/	A-
.	.	.	.	[2A/	.	.	.
.	.	.	.	.	.	4g/	.
=28	=28	=28	=28	=28	=28	=28	=28
1D]	.	2F/]	.	2A/]	.	2.a/	.
.	.	2E/	.	4G/	.	.	.
.	.	.	.	4F/	.	4b\	.
1C	A-	1E	-bra-	2G/	.	1cc	.
.	.	.	.	[2A/	-bra-	.	.
=29	=29	=29	=29	=29	=29	=29	=29
0BB	-bra-	0D	-am.	2A/]	.	1.dd	-bra-
.	.	.	.	4G#i/	.	.	.
.	.	.	.	4F#i/	.	.	.
.	.	.	.	1G#i	.	.	.
.	.	.	.	.	.	4cc\	.
.	.	.	.	.	.	4b\	.
=30	=30	=30	=30	=30	=30	=30	=30
[0AA	.	[0E	.	0A	-am.	[0cc	-am.
=31	=31	=31	=31	=31	=31	=31	=31
0AA]	.	0E]	.	1r	.	1.cc]	.
.	.	.	.	1c	A-	.	.
.	.	.	.	.	.	4b\	.
.	.	.	.	.	.	4a/	.
=32	=32	=32	=32	=32	=32	=32	=32
0C	-am.	1r	.	2c\	-bra-	1g	.
.	.	.	.	2c\	-am	.	.
.	.	1G	A-	1c	au-	2r	.
.	.	.	.	.	.	[2cc\	A-
=33	=33	=33	=33	=33	=33	=33	=33
0GG	.	2G/	-bra-	0d	-tem	2cc\]	.
.	.	2G/	-am	.	.	4b\	.
.	.	.	.	.	.	4a/	.
.	.	1G	au-	.	.	1b	-bra-
=34	=34	=34	=34	=34	=34	=34	=34
0r	.	0A	-tem	1r	.	2e/	-am
.	.	.	.	.	.	1cc	au-
.	.	.	.	1c	ge-	.	.
.	.	.	.	.	.	4b\	.
.	.	.	.	.	.	4a/	.
=35	=35	=35	=35	=35	=35	=35	=35
0r	.	1G	ge-	1d	.	2b\	-tem
.	.	.	.	.	.	1g	ge-
.	.	1A	.	1c	.	.	.
.	.	.	.	.	.	2f#i/	.
=36	=36	=36	=36	=36	=36	=36	=36
0r	.	1G	-nu-	2.B\	.	2.g/	.
.	.	.	.	4A/	.	8f/L	.
.	.	.	.	.	.	8g/J	.
.	.	1G	-it	1B	-nu-	2d/	.
.	.	.	.	.	.	2g/	-nu-
=37	=37	=37	=37	=37	=37	=37	=37
0r	.	2F/	I-	2.A/	-it	2a/	-it
.	.	2E/	.	.	.	1cc	I-
.	.	.	.	4G/	.	.	.
.	.	1F	-sa-	4A/	.	.	.
.	.	.	.	4B\	.	.	.
.	.	.	.	[2c\	.	4b\	.
.	.	.	.	.	.	4a/	.
=38	=38	=38	=38	=38	=38	=38	=38
0r	.	0E	-ac.	4c\]	.	2cc\	.
.	.	.	.	4d\	.	.	.
.	.	.	.	4e\	.	2.b\	.
.	.	.	.	4f\	.	.	.
.	.	.	.	2g\	.	.	.
.	.	.	.	.	.	4a/	.
.	.	.	.	[2e\	I-	4g/	.
.	.	.	.	.	.	4f/	.
=39	=39	=39	=39	=39	=39	=39	=39
0r	.	1r	.	2e\]	.	2e/	.
.	.	.	.	2c\	-sa-	2.g/	-sa-
.	.	1E	I-	1B	.	.	.
.	.	.	.	.	.	4f/	.
.	.	.	.	.	.	4e/	.
.	.	.	.	.	.	4d/	.
=40	=40	=40	=40	=40	=40	=40	=40
1AA	I-	1E	-sa-	0A	-ac.	0c	-ac.
1AA	-sa-	1F	-ac	.	.	.	.
=41	=41	=41	=41	=41	=41	=41	=41
1BB	-ac	1D	au-	0r	.	0r	.
2.GG/	au-	2E/	.	.	.	.	.
.	.	[2G/	.	.	.	.	.
4AA/	.	.	.	.	.	.	.
=42	=42	=42	=42	=42	=42	=42	=42
4BB/	.	2G/]	.	0r	.	0r	.
4C/	.	.	.	.	.	.	.
2D\	.	2F/	.	.	.	.	.
2E\	.	2G/	.	.	.	.	.
[2G\	.	2B\	.	.	.	.	.
=43	=43	=43	=43	=43	=43	=43	=43
2G\]	.	1A	.	0r	.	0r	.
2F#i\	.	.	.	.	.	.	.
2G\	-tem	1G	-tem	.	.	.	.
[2C/	ge-	.	.	.	.	.	.
=44	=44	=44	=44	=44	=44	=44	=44
2C/]	.	1E	ge-	0r	.	0r	.
2G\	.	.	.	.	.	.	.
2F\	.	1F	.	.	.	.	.
2D\	.	.	.	.	.	.	.
=45	=45	=45	=45	=45	=45	=45	=45
2E\	.	1.G	.	0r	.	0r	.
2C/	.	.	.	.	.	.	.
2GG/	.	.	.	.	.	.	.
[2C/	.	2G/	-nu-	.	.	.	.
=46	=46	=46	=46	=46	=46	=46	=46
4C/]	.	1G	-it	0r	.	0r	.
4BB/	.	.	.	.	.	.	.
1E	.	.	.	.	.	.	.
.	.	1F	Ia-	.	.	.	.
2D\	-nu-	.	.	.	.	.	.
=47	=47	=47	=47	=47	=47	=47	=47
2E\	-it	1E	.	0r	.	1r	.
2.G\	Ia-	.	.	.	.	.	.
.	.	1E	-cob.	.	.	1g	Ia-
4F\	.	.	.	.	.	.	.
4E\	.	.	.	.	.	.	.
4D\	.	.	.	.	.	.	.
=48	=48	=48	=48	=48	=48	=48	=48
0C	-cob.	2r	.	1r	.	1g	-cob
.	.	2.E/	Ia-	.	.	.	.
.	.	.	.	1c	Ia-	1g	au-
.	.	4C/	.	.	.	.	.
.	.	[2C/	-cob	.	.	.	.
=49	=49	=49	=49	=49	=49	=49	=49
0r	.	2C/]	.	1c	-cob	1a	-tem
.	.	2F/	au-	.	.	.	.
.	.	2E/	-tem	1c	au-	2g/	ge-
.	.	[2F/	ge-	.	.	[2a/	.
=50	=50	=50	=50	=50	=50	=50	=50
0r	.	2F/]	.	1d	-tem	2a/]	.
.	.	4E/	.	.	.	4g/	.
.	.	4D/	.	.	.	4f/	.
.	.	2F/	.	[1c	ge-	2a/	.
.	.	2E/	-nu-	.	.	[2g/	-nu-
=51	=51	=51	=51	=51	=51	=51	=51
0r	.	1C	-it	2c\]	.	2g/]	.
.	.	.	.	4B\	.	1g	-it
.	.	.	.	4A/	.	.	.
.	.	1r	.	2B\	.	.	.
.	.	.	.	2c\	-nu-	[2g/	Iu-
=52	=52	=52	=52	=52	=52	=52	=52
0r	.	0r	.	2G/	-it	2g/]	.
.	.	.	.	2c\	Iu-	2a/	-dam
.	.	.	.	2B\	-dam	2g/	et
.	.	.	.	2A/	et	[2a/	fra-
=53	=53	=53	=53	=53	=53	=53	=53
0r	.	0r	.	2.c\	fra-	4a/]	.
.	.	.	.	.	.	4g/	.
.	.	.	.	.	.	2e/	.
.	.	.	.	4B\	.	.	.
.	.	.	.	4A/	.	2f/	.
.	.	.	.	4G/	.	.	.
.	.	.	.	[2A/	.	2e/	-tres
=54	=54	=54	=54	=54	=54	=54	=54
0r	.	0r	.	4A/]	.	2f/	e-
.	.	.	.	4G/	.	.	.
.	.	.	.	4F/	-tres	1e	.
.	.	.	.	4E/	.	.	.
.	.	.	.	1F	e-	.	.
.	.	.	.	.	.	2d/	.
=55	=55	=55	=55	=55	=55	=55	=55
1r	.	2r	.	1E	-ius.	1e	-ius.
.	.	1E	Iu-	.	.	.	.
1AA	Iu-	.	.	1c	Iu-	1r	.
.	.	[2F/	-das	.	.	.	.
=56	=56	=56	=56	=56	=56	=56	=56
1BB	-das	2F/]	.	1d	-das	0r	.
.	.	2D/	.	.	.	.	.
2.GG/	au-	2E/	au-	2.B\	au-	.	.
.	.	[2G/	.	.	.	.	.
4AA/	.	.	.	4c\	.	.	.
=57	=57	=57	=57	=57	=57	=57	=57
2BB/	.	2G/]	.	2d\	.	0r	.
1C	.	4F/	.	2G/	.	.	.
.	.	4E/	.	.	.	.	.
.	.	1D	-tem	2A/	.	.	.
2BB/	.	.	.	2D/	.	.	.
=58	=58	=58	=58	=58	=58	=58	=58
1C	-tem	4C/	ge-	1E	-tem	0r	.
.	.	4D/	.	.	.	.	.
.	.	4E/	.	.	.	.	.
.	.	4F/	.	.	.	.	.
2.E\	ge-	2.G/	.	2r	.	.	.
.	.	.	.	[2G/	ge-	.	.
4F\	.	4A/	-nu-	.	.	.	.
=59	=59	=59	=59	=59	=59	=59	=59
2G\	.	[0B	-it	4G/]	.	0r	.
.	.	.	.	4A/	.	.	.
2G\	-nu-	.	.	4B\	.	.	.
.	.	.	.	4c\	.	.	.
1G	-it	.	.	2d\	.	.	.
.	.	.	.	2e\	-nu-	.	.
=60	=60	=60	=60	=60	=60	=60	=60
1G	Pha-	0B]	.	2d\	-it	0r	.
.	.	.	.	2e\	Pha-	.	.
2G\	-res	.	.	2d\	-res	.	.
2G\	et	.	.	2e\	et	.	.
=61	=61	=61	=61	=61	=61	=61	=61
1G	Za-	1B	Pha-	2d\	Za-	0r	.
.	.	.	.	1e	.	.	.
1A	.	1c	.	.	.	.	.
.	.	.	.	2c\	-ram	.	.
=62	=62	=62	=62	=62	=62	=62	=62
2G\	-ram	2B\	-res	2d\	de	0r	.
2E\	de-	2G/	et	2.e\	Tha-	.	.
1F	Tha-	2.A/	Za-	.	.	.	.
.	.	.	.	4d\	.	.	.
.	.	.	.	4d\	.	.	.
.	.	4B\	.	4c\	.	.	.
=63	=63	=63	=63	=63	=63	=63	=63
0E	-mar.	2c\	-ram	[0e	-mar.	1r	.
.	.	1B	de	.	.	.	.
.	.	.	.	.	.	1g	Pha-
.	.	[2c\	Tha-	.	.	.	.
=64	=64	=64	=64	=64	=64	=64	=64
1r	.	2c\]	.	0e]	.	1g	-res
.	.	4B\	.	.	.	.	.
.	.	4A/	.	.	.	.	.
1E	Pha-	1B	-mar.	.	.	1g	au-
=65	=65	=65	=65	=65	=65	=65	=65
1F	.	2A/	Pha-	1c	Pha-	1a	-tem
.	.	2F/	.	.	.	.	.
2C/	.	2G/	.	1c	-res	2g/	ge-
2F\	-res	2F/	-res	.	.	[2a/	.
=66	=66	=66	=66	=66	=66	=66	=66
1E	au-	1G	au-	1c	au-	4a/]	.
.	.	.	.	.	.	4g/	.
.	.	.	.	.	.	1g	.
1D	-tem	1A	.	[1d	-tem	.	.
.	.	.	.	.	.	2f#i/	-nu-
=67	=67	=67	=67	=67	=67	=67	=67
1GG	ge-	1G	-tem	1d]	.	1.g	-it
1C	.	1E	ge-	1c	ge-	.	.
.	.	.	.	.	.	2e/	.
=68	=68	=68	=68	=68	=68	=68	=68
1BB-i	-nu-	1D	-nu-	1d	-nu-	2.f/	Es-
.	.	.	.	.	.	4g/	.
1C	-it	1E	-it	1c	-it	[1e	.
=69	=69	=69	=69	=69	=69	=69	=69
0D	Es-	0F	Es-	2.B-\	Es-	2e/]	.
.	.	.	.	.	.	4d/	.
.	.	.	.	4A/	.	4c/	.
.	.	.	.	1B-i	.	1d	.
=70	=70	=70	=70	=70	=70	=70	=70
[0AA	-rom.	[0E	-rom.	0A	-rom.	[0e	-rom.
=71	=71	=71	=71	=71	=71	=71	=71
0AA]	.	0E]	.	1r	.	1.e]	.
.	.	.	.	1A	Es-	.	.
.	.	.	.	.	.	4d/	.
.	.	.	.	.	.	4c/	.
=72	=72	=72	=72	=72	=72	=72	=72
0E	Es-	1r	.	1B	-rom.	0g	.
.	.	1E	Es-	1G	.	.	.
=73	=73	=73	=73	=73	=73	=73	=73
1.D	-rom.	1F	-rom	1.A	au-	0r	.
.	.	1D	.	.	.	.	.
4C/	.	.	.	2B\	.	.	.
4BB/	.	.	.	.	.	.	.
=74	=74	=74	=74	=74	=74	=74	=74
1AA	.	1.E	au-	1c	-tem	0r	.
1AA	au-	.	.	1A	ge-	.	.
.	.	2F/	.	.	.	.	.
=75	=75	=75	=75	=75	=75	=75	=75
0E	-tem	1G	-tem	1B	.	0r	.
.	.	1E	ge-	[1c	.	.	.
=76	=76	=76	=76	=76	=76	=76	=76
1r	.	1F	.	2c\]	.	0r	.
.	.	.	.	2c\	-nu-	.	.
[1E	ge-	[1G	.	[1c	-it	.	.
=77	=77	=77	=77	=77	=77	=77	=77
2E\]	.	2G/]	.	2c\]	.	0r	.
2E\	-nu-	2G/	-nu-	2B\	.	.	.
1E	-it	2.G/	-it	2c\	.	.	.
.	.	.	.	[2B\	A-	.	.
.	.	4E/	.	.	.	.	.
=78	=78	=78	=78	=78	=78	=78	=78
2D\	A-	2F/	.	4B\]	.	0r	.
.	.	.	.	4A/	.	.	.
2C/	.	1E	A-	1A	.	.	.
1BB	.	.	.	.	.	.	.
.	.	2D/	.	2G#i/	.	.	.
=79	=79	=79	=79	=79	=79	=79	=79
0AA	-ram.	0E	-ram.	1A	-ram.	1r	.
.	.	.	.	1c	.	1e	A-
=80	=80	=80	=80	=80	=80	=80	=80
1.E	A-	1r	.	0B	.	1.g	-ram
.	.	1G	A-	.	.	.	.
2F\	.	.	.	.	.	2a/	.
=81	=81	=81	=81	=81	=81	=81	=81
1G	-ram	1G	-ram	1r	.	2.b\	.
.	.	.	.	.	.	4cc\	.
1GG	au-	1G	au-	[1d	A-	2dd\	.
.	.	.	.	.	.	[2g/	au-
=82	=82	=82	=82	=82	=82	=82	=82
0D	-tem	0A	-tem	1d]	.	2g/]	.
.	.	.	.	.	.	4f#i/	.
.	.	.	.	.	.	4e/	.
.	.	.	.	1d	-ram	1f#i	.
=83	=83	=83	=83	=83	=83	=83	=83
0r	.	1G	ge-	1d	au-	0g	-tem
.	.	1c	.	1e	-tem	.	.
=84	=84	=84	=84	=84	=84	=84	=84
0r	.	2B\	.	2d\	ge-	1g	ge-
.	.	1c	.	1e	.	.	.
.	.	.	.	.	.	1a	.
.	.	4B\	.	4d\	.	.	.
.	.	4A/	.	4c\	.	.	.
=85	=85	=85	=85	=85	=85	=85	=85
0r	.	2c\	.	2e\	.	2g/	-nu-
.	.	2B\	-nu-	1d	.	1g	-it
.	.	1G	-it	.	.	.	.
.	.	.	.	2B\	-nu-	4f/	A-
.	.	.	.	.	.	4e/	.
=86	=86	=86	=86	=86	=86	=86	=86
0r	.	2A/	A-	2c\	-it	2f/	-mi-
.	.	2E/	-mi-	1B	A-	1e	.
.	.	1F	-na-	.	.	.	.
.	.	.	.	2A/	.	2d/	-na-
=87	=87	=87	=87	=87	=87	=87	=87
0r	.	[0E	-dab.	2B\	-mi-	1e	-dab.
.	.	.	.	1c	.	.	.
.	.	.	.	.	.	2r	.
.	.	.	.	4B\	-na-	2e/	A-
.	.	.	.	4A/	.	.	.
=88	=88	=88	=88	=88	=88	=88	=88
2r	.	1E]	.	1c	-dab.	2e/	-mi-
2E\	A-	.	.	.	.	2e/	-na-
2E\	-mi-	1r	.	1B	.	[1g	-dab
2E\	-na-	.	.	.	.	.	.
=89	=89	=89	=89	=89	=89	=89	=89
1.G	-dab	0r	.	2r	.	2g/]	.
.	.	.	.	2B\	A-	4f/	.
.	.	.	.	.	.	4e/	.
.	.	.	.	2B\	-mi-	2.d/	.
4F\	.	.	.	2B\	-na-	.	.
4E\	.	.	.	.	.	4e/	.
=90	=90	=90	=90	=90	=90	=90	=90
1D	.	0r	.	1.d	-dab	4f/	.
.	.	.	.	.	.	4g/	.
.	.	.	.	.	.	2.a/	au-
2F\	au-	.	.	.	.	.	.
.	.	.	.	.	.	4g/	.
2G\	.	.	.	2B\	.	[2g/	.
=91	=91	=91	=91	=91	=91	=91	=91
1A	.	0r	.	2.c\	au-	2g/]	.
.	.	.	.	.	.	2f#i/	.
.	.	.	.	4d\	.	.	.
1G	-tem	.	.	1e	.	1g	-tem
=92	=92	=92	=92	=92	=92	=92	=92
2.E\	ge-	0r	.	1e	-tem	1g	ge-
4F\	.	.	.	.	.	.	.
2G\	.	.	.	1d	ge-	2.b\	.
2G\	-nu-	.	.	.	.	.	.
.	.	.	.	.	.	4cc\	-nu-
=93	=93	=93	=93	=93	=93	=93	=93
1.G	-it	0r	.	2.B\	.	2dd\	-it
.	.	.	.	.	.	2dd\	Na-
.	.	.	.	4c\	-nu-	.	.
.	.	.	.	2d\	-it	[1dd	-a-
4F\	Na-	.	.	2d\	Na-	.	.
4E\	.	.	.	.	.	.	.
=94	=94	=94	=94	=94	=94	=94	=94
2D\	a-	0r	.	1.d	-a-	2dd\]	.
2G\	.	.	.	.	.	4cc\	.
.	.	.	.	.	.	4b\	.
2F\	.	.	.	.	.	2a/	.
[2G\	-son.	.	.	4c\	.	[2b\	.
.	.	.	.	4B\	.	.	.
=95	=95	=95	=95	=95	=95	=95	=95
2G\]	.	0r	.	2d\	.	2b\]	.
2E\	Na-	.	.	2e\	.	4a/	.
.	.	.	.	.	.	4g/	.
1F	-a-	.	.	1c	.	1a	.
=96	=96	=96	=96	=96	=96	=96	=96
0G	-son	1r	.	0B	-son.	0d	-son.
.	.	1G	Na-	.	.	.	.
=97	=97	=97	=97	=97	=97	=97	=97
0C	.	1G	-a-	0c	.	0e	.
.	.	1G	-son	.	.	.	.
=98	=98	=98	=98	=98	=98	=98	=98
1r	.	1G	au-	1B	Na-	1r	.
1C	au-	[1A	-tem	1c	-a-	1e	Na-
=99	=99	=99	=99	=99	=99	=99	=99
1D	.	1A]	.	1F	-son.	1f	-a-
[1E	-tem	[1G	ge-	1E	.	[1g	-son
=100	=100	=100	=100	=100	=100	=100	=100
1E]	.	1G]	.	1.e	au-	1g]	.
1C	ge-	[1A	.	.	.	1e	au-
.	.	.	.	2e\	-tem	.	.
=101	=101	=101	=101	=101	=101	=101	=101
1D	-nu-	1A]	.	1d	ge-	1f	.
[1E	-it	1G	-nu-	1B	-nu-	1g	-tem
=102	=102	=102	=102	=102	=102	=102	=102
1E]	.	1.G	-it	2c\	-it	2e/	ge-
.	.	.	.	2B\	.	2.g/	.
1C	Sal-	.	.	1e	Sal-	.	.
.	.	.	.	.	.	4a/	-nu-
.	.	2E/	.	.	.	2cc\	-it
=103	=103	=103	=103	=103	=103	=103	=103
1D	.	1F	Sal-	2d\	.	2b\	Sal-
.	.	.	.	2c\	.	1a	.
1E	.	1G	.	1B	.	.	.
.	.	.	.	.	.	2g#i/	.
=104	=104	=104	=104	=104	=104	=104	=104
[0AA	-mon.	1E	-mon.	[0A	-mon.	[0a	-mon.
.	.	2r	.	.	.	.	.
.	.	2E/	Sal-	.	.	.	.
=105	=105	=105	=105	=105	=105	=105	=105
0AA]	.	2F/	-mon.	1A]	.	0a]	.
.	.	2.E/	au-	.	.	.	.
.	.	.	.	2r	.	.	.
.	.	4D/	.	.	.	.	.
.	.	4E/	.	2A/	Sal-	.	.
.	.	4F/	.	.	.	.	.
=106	=106	=106	=106	=106	=106	=106	=106
0r	.	2.G/	.	2B\	.	0r	.
.	.	.	.	2G/	-mon.	.	.
.	.	4F/	.	.	.	.	.
.	.	1D	-tem	2.A/	au-	.	.
.	.	.	.	4B\	.	.	.
=107	=107	=107	=107	=107	=107	=107	=107
0r	.	2C/	ge-	1c	-tem	0r	.
.	.	2E/	.	.	.	.	.
.	.	2F/	-nu-	2.A/	ge-	.	.
.	.	2G/	-it	.	.	.	.
.	.	.	.	4B\	.	.	.
=108	=108	=108	=108	=108	=108	=108	=108
0r	.	2E/	Bo-	2c\	-nu-	0r	.
.	.	2.A/	.	2c\	-it	.	.
.	.	.	.	2c\	Bo-	.	.
.	.	4G/	.	.	.	.	.
.	.	4F/	.	[2d\	-oz	.	.
.	.	4E/	.	.	.	.	.
=109	=109	=109	=109	=109	=109	=109	=109
0r	.	2D/	-oz	2d\]	.	0r	.
.	.	1A	de-	2c\	de	.	.
.	.	.	.	1B	Ra-	.	.
.	.	2G/	.	.	.	.	.
=110	=110	=110	=110	=110	=110	=110	=110
1r	.	1F	Ra-	1.A	-ab.	0r	.
1AA	Bo-	1E	-ab.	.	.	.	.
.	.	.	.	4G/	.	.	.
.	.	.	.	4F/	.	.	.
=111	=111	=111	=111	=111	=111	=111	=111
2.C/	-oz	1r	.	1E	.	0r	.
4D\	.	.	.	.	.	.	.
4E\	.	1G	Bo-	1E	Bo-	.	.
4F\	.	.	.	.	.	.	.
[2E\	.	.	.	.	.	.	.
=112	=112	=112	=112	=112	=112	=112	=112
2E\]	.	1G	-oz	1C	-oz	0r	.
2C/	.	.	.	.	.	.	.
1BB	au-	1G	au-	1D	au-	.	.
=113	=113	=113	=113	=113	=113	=113	=113
1AA	-tem	1A	-tem	0E	-tem	0r	.
[1C	ge-	1G	ge-	.	.	.	.
=114	=114	=114	=114	=114	=114	=114	=114
2C/]	.	1.A	.	1.E	ge-	0r	.
2C/	-nu-	.	.	.	.	.	.
[1C	-it	.	.	.	.	.	.
.	.	2G/	-nu-	2E/	-nu-	.	.
=115	=115	=115	=115	=115	=115	=115	=115
1C]	.	1G	-it	1E	-it	0r	.
1BB	O-	1G	O-	1D	O	.	.
=116	=116	=116	=116	=116	=116	=116	=116
1C	-beth	2G/	-beth	1E	-beth	0r	.
.	.	2E/	.	.	.	.	.
1D	.	[1F	ex	2D/	ex	.	.
.	.	.	.	[2A/	Ruth-	.	.
=117	=117	=117	=117	=117	=117	=117	=117
1.AA	ex	1F]	.	4A/]	.	0r	.
.	.	.	.	4B\	.	.	.
.	.	.	.	1c	.	.	.
.	.	[1E	Ruth.	.	.	.	.
2BB/	.	.	.	4B\	.	.	.
.	.	.	.	4A/	.	.	.
=118	=118	=118	=118	=118	=118	=118	=118
0C	Ruth.	1E]	.	0G	.	0r	.
.	.	2r	.	.	.	.	.
.	.	2E/	O-	.	.	.	.
=119	=119	=119	=119	=119	=119	=119	=119
1r	.	1F	-beth	1A	O-	0r	.
1BB	O-	1D	.	1B	-beth	.	.
=120	=120	=120	=120	=120	=120	=120	=120
0C	-beth	2.E/	au-	1G	.	1r	.
.	.	4F/	.	.	.	.	.
.	.	2G/	.	[1c	au-	1e	O-
.	.	[2A/	.	.	.	.	.
=121	=121	=121	=121	=121	=121	=121	=121
0D	au-	4A/]	.	2c\]	.	1f	-beth
.	.	4G/	.	.	.	.	.
.	.	4F/	.	4B\	.	.	.
.	.	4E/	.	4A/	.	.	.
.	.	1F	.	1B	.	1d	.
=122	=122	=122	=122	=122	=122	=122	=122
0C	-tem	1G	-tem	0c	-tem	2.e/	au-
.	.	.	.	.	.	4f/	.
.	.	2.E/	ge-	.	.	1g	-tem
.	.	4F/	.	.	.	.	.
=123	=123	=123	=123	=123	=123	=123	=123
1.C	ge-	2G/	.	1r	.	2.e/	ge-
.	.	2A/	-nu-	.	.	.	.
.	.	.	.	.	.	4f/	.
.	.	2G/	-it	1c	ge-	2g/	.
2C/	-nu-	[2c\	Ie-	.	.	2g/	-nu-
=124	=124	=124	=124	=124	=124	=124	=124
1C	-it	4c\]	.	2G/	-nu-	2g/	-it
.	.	4B\	.	.	.	.	.
.	.	2c\	.	2A/	-it	2e/	.
1BB-i	Ies-	1d	.	1B-	Ies-	1f	Ies-
=125	=125	=125	=125	=125	=125	=125	=125
[0C	-se.	0c	-se.	[0G	-se.	0e	-se.
=126	=126	=126	=126	=126	=126	=126	=126
0C]	.	2r	.	0G]	.	1r	.
.	.	2E/	Ies-	.	.	.	.
.	.	2.G/	.	.	.	1e	Ies-
.	.	4A/	.	.	.	.	.
=127	=127	=127	=127	=127	=127	=127	=127
0r	.	2B\	.	0r	.	2.g/	.
.	.	2c\	.	.	.	.	.
.	.	.	.	.	.	4a/	.
.	.	2d\	.	.	.	4b\	.
.	.	.	.	.	.	4a/	.
.	.	2e\	-se	.	.	[2cc\	.
=128	=128	=128	=128	=128	=128	=128	=128
0r	.	2A/	au-	0r	.	4cc\]	.
.	.	.	.	.	.	4b\	.
.	.	2c\	.	.	.	1a	-se
.	.	1B	.	.	.	.	.
.	.	.	.	.	.	2g#i/	au-
=129	=129	=129	=129	=129	=129	=129	=129
0r	.	1A	-tem	0r	.	2a/	-tem
.	.	.	.	.	.	2.cc\	ge-
.	.	2r	.	.	.	.	.
.	.	.	.	.	.	4b\	.
.	.	[2c\	ge-	.	.	4a/	.
.	.	.	.	.	.	4g/	.
=130	=130	=130	=130	=130	=130	=130	=130
0r	.	4c\]	.	0r	.	2a/	.
.	.	4B\	.	.	.	.	.
.	.	4A/	.	.	.	1g	.
.	.	4G/	.	.	.	.	.
.	.	1A	-nu-	.	.	.	.
.	.	.	.	.	.	2f#i/	-nu-
=131	=131	=131	=131	=131	=131	=131	=131
0r	.	1.G	-it	1d	ge-	1g	-it
.	.	.	.	1e	.	1g	Da-
.	.	2E/	Da-	.	.	.	.
=132	=132	=132	=132	=132	=132	=132	=132
0r	.	2.G/	.	1d	-nu-	1g	-vid
.	.	4F/	.	.	.	.	.
.	.	2.D/	.	1d	-it	[1f	re-
.	.	4E/	.	.	.	.	.
=133	=133	=133	=133	=133	=133	=133	=133
0r	.	4F/	.	2r	.	1f]	.
.	.	4G/	.	.	.	.	.
.	.	1A	.	1c	Da-	.	.
.	.	.	.	.	.	1e	.
.	.	2G/	.	2B\	.	.	.
=134	=134	=134	=134	=134	=134	=134	=134
0r	.	2A/	.	2c\	.	1e	-gem.
.	.	2G/	-vid	2B\	-vid	.	.
.	.	1A	re-	1c	re-	2r	.
.	.	.	.	.	.	2e/	Da-
=135	=135	=135	=135	=135	=135	=135	=135
0r	.	0E	-gem.	1B	-gem.	2g/	-vid
.	.	.	.	.	.	4e/	au-
.	.	.	.	.	.	4f/	.
.	.	.	.	2r	.	4g/	.
.	.	.	.	.	.	4a/	.
.	.	.	.	2B\	Da-	[2b\	.
=136	=136	=136	=136	=136	=136	=136	=136
0r	.	1r	.	1c	-vid	4b\]	.
.	.	.	.	.	.	4a/	.
.	.	.	.	.	.	1a	.
.	.	1E	Da-	1B	.	.	.
.	.	.	.	.	.	2g#i/	-tem
=137	=137	=137	=137	=137	=137	=137	=137
0r	.	1.F	-vid	2.A/	au-	0a	rex
.	.	.	.	4B\	.	.	.
.	.	.	.	2c\	.	.	.
.	.	4E/	.	[2d\	.	.	.
.	.	4D/	.	.	.	.	.
=138	=138	=138	=138	=138	=138	=138	=138
1AA	Da-	1E	.	2d\]	.	0r	.
.	.	.	.	2c#i\	.	.	.
[1BB	-vid	2.D/	au-	[1d	.	.	.
.	.	4E/	.	.	.	.	.
=139	=139	=139	=139	=139	=139	=139	=139
2BB/]	.	2F/	.	2d\]	.	0r	.
2GG/	.	1G	.	4c\	.	.	.
.	.	.	.	4B\	.	.	.
1AA	.	.	.	2.c\	.	.	.
.	.	2F#i/	-tem	.	.	.	.
.	.	.	.	4d\	.	.	.
=140	=140	=140	=140	=140	=140	=140	=140
2.GG/	au-	0G	rex	2e\	-tem	0r	.
.	.	.	.	2.d\	rex	.	.
4AA/	.	.	.	.	.	.	.
2BB/	.	.	.	.	.	.	.
.	.	.	.	4c\	.	.	.
[2C/	.	.	.	[2e\	.	.	.
=141	=141	=141	=141	=141	=141	=141	=141
2C/]	.	1E	ge-	4e\]	.	0r	.
.	.	.	.	4d\	.	.	.
2E\	.	.	.	1c	.	.	.
1D	-tem	1F	.	.	.	.	.
.	.	.	.	2B\	.	.	.
=142	=142	=142	=142	=142	=142	=142	=142
0C	rex	1.G	.	0c	.	0r	.
.	.	2G/	-nu-	.	.	.	.
=143	=143	=143	=143	=143	=143	=143	=143
1.C	ge-	1G	-it	1.c	ge-	1.e	ge-
.	.	[1G	Sa-	.	.	.	.
2C/	-nu-	.	.	2c\	-nu-	2e/	-nu-
=144	=144	=144	=144	=144	=144	=144	=144
1C	-it	1G]	.	1c	-it	1e	-it
1D	Sa-	1F	-lo-	1B	Sa-	1d	Sa-
=145	=145	=145	=145	=145	=145	=145	=145
1E	-lo-	1G	-mo-	1c	-lo-	1g	-lo-
[1D	-mo-	[1A	.	[1d	-mo-	[1f	-mo-
=146	=146	=146	=146	=146	=146	=146	=146
1D]	.	1A]	.	1d]	.	2f/]	.
.	.	.	.	.	.	2e/	.
1GG	-nem	1G	-nem	1B	.	[1g	-nem
=147	=147	=147	=147	=147	=147	=147	=147
0C	ex	1G	ex	0c	-nem	1g]	.
.	.	[1A	e-	.	.	1e	ex
=148	=148	=148	=148	=148	=148	=148	=148
1FF	e-	1A]	.	1c	ex	1f	e-
[1C	-a,	1G	.	[1c	e-	[1e	-a,
=149	=149	=149	=149	=149	=149	=149	=149
1C]	.	1G	-a,	1c]	.	1e]	.
1C	que	[1A	que	1c	-a,	1e	que
=150	=150	=150	=150	=150	=150	=150	=150
1FF	.	1A]	.	0c	que	1f	fu-
1C	fu-	1G	fu-	.	.	1e	-it
=151	=151	=151	=151	=151	=151	=151	=151
1D	-it	1F	-it	1A	fu-	1f	U-
1E	.	1G	.	1G	-it	[1e	-ri
=152	=152	=152	=152	=152	=152	=152	=152
0F	U-	0D	.	0A	U-	2e/]	.
.	.	.	.	.	.	2c/	.
.	.	.	.	.	.	1d	.
=153	=153	=153	=153	=153	=153	=153	=153
[0E	-ri-	1.G	U-	1.B	-ri-	[0el	-e.
.	.	2C/	.	2E/	.	.	.
=154	=154	=154	=154	=154	=154	=154	=154
1E]	.	1G	-ri-	1B	.	0e_	.
1AA	.	1A	.	1c	.	.	.
=155	=155	=155	=155	=155	=155	=155	=155
0El	-e.	0Gl	-e.	0Bl	-e.	0e]	.
!!LO:LB:i:g=z
=156||	=156||	=156||	=156||	=156||	=156||	=156||	=156||
*>B	*	*>B	*	*>B	*	*>B	*
*clefF4	*	*clefGv2	*	*clefGv2	*	*clefG2	*
*k[]	*	*k[]	*	*k[]	*	*k[]	*
*M2/1	*	*M2/1	*	*M2/1	*	*M2/1	*
*met(C|)	*	*met(C|)	*	*met(C|)	*	*met(C|)	*
!!!OMD: Secunda pars: Solomon autem genuit
!!section: Secunda pars: Solomon autem genuit
0r	.	1r	.	1d	Sa-	0r	.
.	.	1G	Sa-	2d\	-lo-	.	.
.	.	.	.	2d\	-mon	.	.
=157	=157	=157	=157	=157	=157	=157	=157
0r	.	2G/	-lo-	1d	au-	0r	.
.	.	2G/	-mon	.	.	.	.
.	.	1G	au-	[1e	-tem	.	.
=158	=158	=158	=158	=158	=158	=158	=158
1r	.	1A	-tem	2e\]	.	0r	.
.	.	.	.	4d\	.	.	.
.	.	.	.	4c\	.	.	.
1D	Sa-	2r	.	1f	.	.	.
.	.	[2A/	ge-	.	.	.	.
=159	=159	=159	=159	=159	=159	=159	=159
2D\	-lo-	4A/]	.	2r	.	0r	.
.	.	4F/	.	.	.	.	.
2D\	-mon	2B-\	-nu-	2.f\	ge-	.	.
1D	au-	1A	-it,	.	.	.	.
.	.	.	.	4e\	.	.	.
.	.	.	.	4d\	.	.	.
.	.	.	.	4c\	.	.	.
=160	=160	=160	=160	=160	=160	=160	=160
0E	-tem	1r	.	2.B\	.	0r	.
.	.	.	.	4A/	.	.	.
.	.	1G	ge-	2B\	.	.	.
.	.	.	.	[2c\	.	.	.
=161	=161	=161	=161	=161	=161	=161	=161
1C	ge-	1.A	.	2c\]	.	0r	.
.	.	.	.	2A/	-nu-	.	.
[1D	.	.	.	2.A/	-it	.	.
.	.	2F/	-nu-	.	.	.	.
.	.	.	.	4G/	.	.	.
=162	=162	=162	=162	=162	=162	=162	=162
2D\]	.	1F	-it,	2A/	.	0r	.
2BB/	-nu-	.	.	1B	Ro-	.	.
1BB	-it	[1G	Ro-	.	.	.	.
.	.	.	.	2G/	-bo-	.	.
=163	=163	=163	=163	=163	=163	=163	=163
1.C	Ro-	2G/]	.	1G	-am.	0r	.
.	.	2E/	-bo-	.	.	.	.
.	.	1E	-am.	1r	.	.	.
2AA/	-bo-	.	.	.	.	.	.
=164	=164	=164	=164	=164	=164	=164	=164
0AA	-am.	1r	.	1c	Ro-	0r	.
.	.	[1A	Ro-	2c\	-bo-	.	.
.	.	.	.	2c\	-am.	.	.
=165	=165	=165	=165	=165	=165	=165	=165
1.D	Ro-	2A/]	.	2d\	au-	0r	.
.	.	2A/	-bo-	2.f\	.	.	.
.	.	1B	-am	.	.	.	.
.	.	.	.	4e\	.	.	.
2D\	-bo-	.	.	4d\	.	.	.
.	.	.	.	4c\	.	.	.
=166	=166	=166	=166	=166	=166	=166	=166
1E	-am	1G	au-	1B	.	0r	.
1C	.	2A/	.	1c	.	.	.
.	.	[2c\	.	.	.	.	.
=167	=167	=167	=167	=167	=167	=167	=167
2.G\	au-	2c\]	.	1d	.	0r	.
.	.	2B\	.	.	.	.	.
4F\	.	.	.	.	.	.	.
4E\	.	2c\	.	[1e	.	.	.
4D\	.	.	.	.	.	.	.
[2C/	.	2G/	.	.	.	.	.
=168	=168	=168	=168	=168	=168	=168	=168
2C/]	.	2A/	.	2e\]	.	0r	.
2AA/	.	2.c\	.	2c\	.	.	.
2GG/	.	.	.	2d\	.	.	.
.	.	8B/L	.	.	.	.	.
.	.	8A/J	.	.	.	.	.
[2G\	.	[2B\	.	2e\	.	.	.
=169	=169	=169	=169	=169	=169	=169	=169
2G\]	.	4B\]	.	4d\	.	0r	.
.	.	4A/	.	4c\	.	.	.
2E\	.	1G	.	1c	.	.	.
1D	.	.	.	.	.	.	.
.	.	2F/	.	2B\	.	.	.
=170	=170	=170	=170	=170	=170	=170	=170
1C	-tem	1G	-tem	2c\	-tem	0r	.
.	.	.	.	2C/	ge-	.	.
2r	.	1B	ge-	2D/	.	.	.
2GG/	ge-	.	.	[2E/	.	.	.
=171	=171	=171	=171	=171	=171	=171	=171
1AA	-nu-	1c	.	4E/]	.	0r	.
.	.	.	.	4D/	.	.	.
.	.	.	.	4E/	-nu-	.	.
.	.	.	.	4C/	.	.	.
2GG/	-it	[1d	.	1G	-it	.	.
2G\	A-	.	.	.	.	.	.
=172	=172	=172	=172	=172	=172	=172	=172
2F\	-bi-	2d\]	.	2r	.	0r	.
2G\	-am,	2d\	-nu-	2G/	A-	.	.
2r	.	1d	-it	2F/	-bi-	.	.
2G\	A-	.	.	2G/	-am,	.	.
=173	=173	=173	=173	=173	=173	=173	=173
2F\	-bi-	1d	A-	2r	.	0r	.
2G\	-am,	.	.	2G/	A-	.	.
2r	.	2.d\	-bi-	2F/	-bi-	.	.
2GG/	A-	.	.	2G/	-am,	.	.
.	.	4B\	.	.	.	.	.
=174	=174	=174	=174	=174	=174	=174	=174
2FF/	-bi-	2c\	.	2r	.	0r	.
2GG/	.	1B	.	1G	a-	.	.
1D	.	.	.	.	.	.	.
.	.	2A/	.	2F#i/	-bi-	.	.
=175	=175	=175	=175	=175	=175	=175	=175
0GG	-am.	[0B	-am.	1G	-am.	0r	.
.	.	.	.	2r	.	.	.
.	.	.	.	2d\	A-	.	.
=176	=176	=176	=176	=176	=176	=176	=176
2r	.	0B]	.	2d\	-bi-	0r	.
2G\	A-	.	.	2d\	-a	.	.
2G\	-bi-	.	.	1d	au-	.	.
2G\	-a	.	.	.	.	.	.
=177	=177	=177	=177	=177	=177	=177	=177
1G	au-	1r	.	1e	-tem	0r	.
2A\	-tem	1c	A-	2r	.	.	.
[2F\	ge-	.	.	[2A/	ge-	.	.
=178	=178	=178	=178	=178	=178	=178	=178
2F\]	.	2c\	-bi-	2A/]	.	0r	.
4E\	.	2c\	-a	4G/	.	.	.
4D\	.	.	.	4F/	.	.	.
2E\	.	1c	au-	2G/	.	.	.
[2F\	.	.	.	[2A/	.	.	.
=179	=179	=179	=179	=179	=179	=179	=179
2F\]	.	0d	-tem	2A/]	.	0r	.
4E\	.	.	.	4G/	.	.	.
4D\	.	.	.	4F/	.	.	.
2F\	.	.	.	2A/	.	.	.
2G\	-nu-	.	.	2B-i\	-nu-	.	.
=180	=180	=180	=180	=180	=180	=180	=180
2E\	-it	1c	ge-	2G/	-it	0r	.
1F	A-	.	.	1A	A-	.	.
.	.	1d	.	.	.	.	.
4E\	.	.	.	4G/	.	.	.
4D\	.	.	.	4F/	.	.	.
=181	=181	=181	=181	=181	=181	=181	=181
2F\	.	2c\	-nu-	4A/	.	0r	.
.	.	.	.	4B\	.	.	.
2E\	.	1c	-it	4c\	.	.	.
.	.	.	.	4d\	.	.	.
1A	.	.	.	4e\	.	.	.
.	.	.	.	4f\	.	.	.
.	.	4B\	.	[2e\	.	.	.
.	.	4A/	.	.	.	.	.
=182	=182	=182	=182	=182	=182	=182	=182
2G\	.	2B\	.	4e\]	.	0r	.
.	.	.	.	4d\	.	.	.
2F\	.	1A	A-	1d	.	.	.
1E	-sa.	.	.	.	.	.	.
.	.	2G/	.	2c#i\	.	.	.
=183	=183	=183	=183	=183	=183	=183	=183
1.D	A-	0A	-sa.	1d	-sa.	0r	.
.	.	.	.	2r	.	.	.
4C/	.	.	.	2D/	A-	.	.
4BB/	.	.	.	.	.	.	.
=184	=184	=184	=184	=184	=184	=184	=184
1AA	-sa	2r	.	2E/	.	0r	.
.	.	2A/	A-	2C/	-sa.	.	.
1GG	.	2B\	.	2.D/	au-	.	.
.	.	2G/	-sa	.	.	.	.
.	.	.	.	4E/	.	.	.
=185	=185	=185	=185	=185	=185	=185	=185
1D	au-	2.A/	au-	1F	.	0r	.
.	.	4B\	.	.	.	.	.
1AA	.	1c	-tem	2E/	-tem	.	.
.	.	.	.	[2F/	ge-	.	.
=186	=186	=186	=186	=186	=186	=186	=186
1D	.	2.A/	ge-	4F/]	.	0r	.
.	.	.	.	4E/	-nu-	.	.
.	.	.	.	2F/	-it	.	.
.	.	4B\	.	.	.	.	.
1C	.	2c\	.	2G/	Io-	.	.
.	.	2c\	-nu-	[2A/	.	.	.
=187	=187	=187	=187	=187	=187	=187	=187
1F	-tem	1c	-it	4A/]	.	0r	.
.	.	.	.	4G/	.	.	.
.	.	.	.	4A/	.	.	.
.	.	.	.	4F/	.	.	.
1E	.	2r	.	2G/	-sa-	.	.
.	.	[2c\	Io-	2C/	-phat,	.	.
=188	=188	=188	=188	=188	=188	=188	=188
1A	ge-	2c\]	.	2r	.	0r	.
.	.	4B\	.	2F/	Io-	.	.
.	.	4A/	.	.	.	.	.
2G\	.	2B\	.	2E/	-sa-	.	.
2E\	-nu-	2c\	.	2C/	-phat.	.	.
=189	=189	=189	=189	=189	=189	=189	=189
2F\	-it	2A/	.	2r	.	0r	.
1E	Io-	1c	.	1G	Io-	.	.
4D\	.	4B\	.	4F/	.	.	.
4C/	.	4A/	.	4E/	.	.	.
=190	=190	=190	=190	=190	=190	=190	=190
2D\	.	2B\	.	2F/	.	0r	.
2AA/	.	1A	.	1E	.	.	.
1BB	-sa-	.	.	.	.	.	.
.	.	2G#i/	-sa-	2D/	.	.	.
=191	=191	=191	=191	=191	=191	=191	=191
[0AA	-phat.	1A	-phat.	2F/	.	0r	.
.	.	.	.	2E/	.	.	.
.	.	2r	.	2F/	.	.	.
.	.	2c\	Io-	2E/	-sa-	.	.
=192	=192	=192	=192	=192	=192	=192	=192
0AA]	.	2c\	-sa-	2F/	-phat	0r	.
.	.	2c\	-phat	2E/	au-	.	.
.	.	1c	au-	4F/	.	.	.
.	.	.	.	4D/	.	.	.
.	.	.	.	2E/	.	.	.
=193	=193	=193	=193	=193	=193	=193	=193
0r	.	1d	-tem	2D/	-tem	0r	.
.	.	.	.	2F/	ge-	.	.
.	.	2B\	ge-	2G/	-nu-	.	.
.	.	[2c\	.	[2A/	-it	.	.
=194	=194	=194	=194	=194	=194	=194	=194
0r	.	4c\]	.	4A/]	.	0r	.
.	.	4B\	.	4B\	.	.	.
.	.	2A/	.	4c\	.	.	.
.	.	.	.	4d\	.	.	.
.	.	2G/	-nu-	2e\	.	.	.
.	.	2A/	-it	[2f\	Io-	.	.
=195	=195	=195	=195	=195	=195	=195	=195
1r	.	1F	Io-	4f\]	.	0r	.
.	.	.	.	4e\	.	.	.
.	.	.	.	1d	.	.	.
1AA	Io-	1E	-ram.	.	.	.	.
.	.	.	.	2c#i\	.	.	.
=196	=196	=196	=196	=196	=196	=196	=196
1BB	-ram	2r	.	1d	-ram.	0r	.
.	.	2D/	Io-	.	.	.	.
1GG	.	2.G/	.	2r	.	.	.
.	.	.	.	2B\	Io-	.	.
.	.	4F/	.	.	.	.	.
=197	=197	=197	=197	=197	=197	=197	=197
1.AA	au-	4E/	-ram	2c\	.	0r	.
.	.	4C/	.	.	.	.	.
.	.	1c	au-	1A	.	.	.
2BB/	.	4B\	.	4G/	.	.	.
.	.	4A/	.	4F/	.	.	.
=198	=198	=198	=198	=198	=198	=198	=198
1C	-tem	4G/	-tem	4E/	-ram.	0r	.
.	.	4E/	.	4C/	.	.	.
.	.	1A	ge-	1c	au-	.	.
2.AA/	ge-	.	.	.	.	.	.
.	.	4G/	-nu-	4B\	.	.	.
4BB/	.	4F/	.	4A/	.	.	.
=199	=199	=199	=199	=199	=199	=199	=199
2C/	.	4E/	-it	4G/	-tem	0r	.
.	.	4C/	.	4E/	.	.	.
2C/	-nu-	1c	O-	1A	ge-	.	.
1C	-it	.	.	.	.	.	.
.	.	4B\	.	4G/	-nu-	.	.
.	.	4A/	.	4F/	.	.	.
=200	=200	=200	=200	=200	=200	=200	=200
1C	O-	4G/	-zi-	4E/	-it	0r	.
.	.	4E/	.	4C/	.	.	.
.	.	1A	.	1c	O-	.	.
[1C	-zi-	.	.	.	.	.	.
.	.	4G/	.	4B\	.	.	.
.	.	4F/	.	4A/	.	.	.
=201	=201	=201	=201	=201	=201	=201	=201
2C/]	.	4E/	-am.	2G/	-zi-	0r	.
.	.	4C/	.	.	.	.	.
2AA/	.	1F	O-	2A/	.	.	.
1BB	.	.	.	1D	-am.	.	.
.	.	4E/	.	.	.	.	.
.	.	4D/	.	.	.	.	.
=202	=202	=202	=202	=202	=202	=202	=202
[0AA	-am.	4C/	-zi-	2r	.	0r	.
.	.	4AA/	.	.	.	.	.
.	.	1A	.	1F	O-	.	.
.	.	4G/	.	4E/	.	.	.
.	.	4F/	.	4D/	.	.	.
=203	=203	=203	=203	=203	=203	=203	=203
0AA]	.	4E/	.	4C/	-zi-	0r	.
.	.	4C/	.	4AA/	.	.	.
.	.	1c	.	1A	.	.	.
.	.	4B\	.	4G/	.	.	.
.	.	4A/	.	4F/	.	.	.
=204	=204	=204	=204	=204	=204	=204	=204
1r	.	4G/	-as	4E/	.	0r	.
.	.	4E/	.	4C/	.	.	.
.	.	1A	au-	1c	.	.	.
1C	O-	.	.	.	.	.	.
.	.	4G/	-tem	4B\	-as	.	.
.	.	4F/	.	4A/	.	.	.
=205	=205	=205	=205	=205	=205	=205	=205
2C/	-zi-	2.E/	ge-	2G/	au-	0r	.
2C/	-as	.	.	2A/	.	.	.
.	.	4F/	.	.	.	.	.
1C	au-	2G/	.	1E	-tem	.	.
.	.	[2A/	.	.	.	.	.
=206	=206	=206	=206	=206	=206	=206	=206
0D	-tem	2A/]	.	1r	.	0r	.
.	.	4G/	.	.	.	.	.
.	.	4F/	.	.	.	.	.
.	.	2A/	.	2r	.	.	.
.	.	2B\	-nu-	2F/	ge-	.	.
=207	=207	=207	=207	=207	=207	=207	=207
1C	ge-	1c	-it,	2G/	.	0r	.
.	.	.	.	1A	.	.	.
1D	.	1F	.	.	.	.	.
.	.	.	.	2B\	-nu-	.	.
=208	=208	=208	=208	=208	=208	=208	=208
1C	-nu-	1G	ge-	1c	-it,	0r	.
1C	-it	1A	.	2r	.	.	.
.	.	.	.	2c\	ge-	.	.
=209	=209	=209	=209	=209	=209	=209	=209
2r	.	1G	-nu-	2d\	.	0r	.
1C	Io-	.	.	1e	.	.	.
.	.	1G	-it	.	.	.	.
4BB/	.	.	.	4d\	.	.	.
4AA/	.	.	.	4c\	.	.	.
=210	=210	=210	=210	=210	=210	=210	=210
2C/	.	2r	.	2e\	.	0r	.
2D\	.	1F	Io-	2f\	-nu-	.	.
1BB	-a-	.	.	2d\	-it	.	.
.	.	4E/	.	[2f\	Io-	.	.
.	.	4D/	.	.	.	.	.
=211	=211	=211	=211	=211	=211	=211	=211
0AA	-than.	2F/	.	2f\]	.	0r	.
.	.	2G/	.	4e\	.	.	.
.	.	.	.	4d\	.	.	.
.	.	1E	-a-	4c#i\	.	.	.
.	.	.	.	4d\	.	.	.
.	.	.	.	4e\	-a-	.	.
.	.	.	.	4c#i\	.	.	.
=212	=212	=212	=212	=212	=212	=212	=212
2r	.	0D	-than.	1d	-tan.	0r	.
1D	Io-	.	.	.	.	.	.
.	.	.	.	2A/	Io-	.	.
2D\	-a-	.	.	2B\	-a-	.	.
=213	=213	=213	=213	=213	=213	=213	=213
2E\	-than	1r	.	2G/	-than	0r	.
2C/	.	.	.	2.A/	au-	.	.
2.D\	au-	2r	.	.	.	.	.
.	.	.	.	4G/	.	.	.
.	.	[2A/	Io-	4F/	.	.	.
4E\	.	.	.	4E/	.	.	.
=214	=214	=214	=214	=214	=214	=214	=214
2F\	.	2A/]	.	4D/	.	0r	.
.	.	.	.	4C/	.	.	.
2A\	.	2A/	-a-	1F	.	.	.
1G	.	2B\	-than	.	.	.	.
.	.	2G/	.	2E/	.	.	.
=215	=215	=215	=215	=215	=215	=215	=215
1F	-tem	2.A/	au-	2F/	-tem	0r	.
.	.	.	.	2.A/	ge-	.	.
.	.	4B\	.	.	.	.	.
2r	.	2c\	.	.	.	.	.
.	.	.	.	4B\	.	.	.
2C/	ge-	2e\	.	4c\	-nu-	.	.
.	.	.	.	4d\	.	.	.
=216	=216	=216	=216	=216	=216	=216	=216
2.D\	.	1d	.	2B\	-it	0r	.
.	.	.	.	2.A/	A-	.	.
4E\	-nu-	.	-tem	.	.	.	.
2F\	-it	1c	.	.	.	.	.
.	.	.	.	4G/	.	.	.
2E\	.	.	.	[2c\	.	.	.
=217	=217	=217	=217	=217	=217	=217	=217
2F\	A-	2r	.	4c\]	.	0r	.
.	.	.	.	4d\	.	.	.
2E\	.	2G/	ge-	1e	.	.	.
1F	.	2.A/	.	.	.	.	.
.	.	.	.	2d\	.	.	.
.	.	4B\	-nu-	.	.	.	.
=218	=218	=218	=218	=218	=218	=218	=218
0E	-chaz.	2c\	-it	1e	-chaz.	0r	.
.	.	2B\	.	.	.	.	.
.	.	2c\	A-	1r	.	.	.
.	.	2B\	.	.	.	.	.
=219	=219	=219	=219	=219	=219	=219	=219
1r	.	1c	.	1e	A-	0r	.
1G	A-	1B	-chaz.	2d\	.	.	.
.	.	.	.	[2e\	-chaz	.	.
=220	=220	=220	=220	=220	=220	=220	=220
1A	-chaz	1r	.	2e\]	.	0r	.
.	.	.	.	4d\	.	.	.
.	.	.	.	4c\	.	.	.
1G	au-	1B	A-	2d\	.	.	.
.	.	.	.	[2e\	au-	.	.
=221	=221	=221	=221	=221	=221	=221	=221
1A	.	1c	-chaz.	2e\]	.	0r	.
.	.	.	.	4d\	.	.	.
.	.	.	.	4c\	.	.	.
1G	-tem	1B	au-	2d\	-tem	.	.
.	.	.	.	[2e\	ge-	.	.
=222	=222	=222	=222	=222	=222	=222	=222
1A	ge-	1c	.	2e\]	.	0r	.
.	.	.	.	2c\	-nu-	.	.
1G	-nu-	1B	-tem	2d\	-it	.	.
.	.	.	.	[2e\	E-	.	.
=223	=223	=223	=223	=223	=223	=223	=223
1A	-it	1c	ge-	2e\]	.	0r	.
.	.	.	.	4d\	.	.	.
.	.	.	.	4c\	.	.	.
2G\	E-	2B\	-nu-	2d\	.	.	.
2E\	-ze-	[2c\	-it	2e\	-ze-	.	.
=224	=224	=224	=224	=224	=224	=224	=224
1F	-chi	2c\]	.	1A	-chi-	0r	.
.	.	4B\	.	.	.	.	.
.	.	4A/	.	.	.	.	.
2E\	-am.	2B\	E-	2.e\	.	.	.
2A\	E-	2c\	-ze-	.	.	.	.
.	.	.	.	4c\	.	.	.
=225	=225	=225	=225	=225	=225	=225	=225
2G\	.	2B\	-chi-	2d\	.	0r	.
2E\	-ze-	1c	.	2e\	.	.	.
1F	-chi	.	.	1A	.	.	.
.	.	4B\	.	.	.	.	.
.	.	4A/	.	.	.	.	.
=226	=226	=226	=226	=226	=226	=226	=226
0E	-am.	[0G	-am.	1B	-am.	0r	.
.	.	.	.	1r	.	.	.
=227	=227	=227	=227	=227	=227	=227	=227
2r	.	0G]	.	2B\	E-	0r	.
2E\	E-	.	.	2B\	-ze-	.	.
2E\	-ze-	.	.	2B\	-chi-	.	.
2E\	-chi-	.	.	[2c\	.	.	.
=228	=228	=228	=228	=228	=228	=228	=228
2.F\	.	0r	.	4c\]	.	0r	.
.	.	.	.	4A/	.	.	.
.	.	.	.	2A/	-as	.	.
4D\	.	.	.	.	.	.	.
2D\	-as	.	.	2B\	au-	.	.
2E\	au-	.	.	2c\	-tem	.	.
=229	=229	=229	=229	=229	=229	=229	=229
2F\	-tem	0r	.	1d	ge-	0r	.
1G	ge-	.	.	.	.	.	.
.	.	.	.	2B\	.	.	.
2E\	.	.	.	2c\	-nu-	.	.
=230	=230	=230	=230	=230	=230	=230	=230
2F\	-nu-	0r	.	1d	-it	0r	.
1G	-it	.	.	.	.	.	.
.	.	.	.	2B\	Ma-	.	.
2E\	Ma-	.	.	2c\	.	.	.
=231	=231	=231	=231	=231	=231	=231	=231
2F\	-nas-	0r	.	2d\	-nas-	0r	.
2G\	.	.	.	2.B\	.	.	.
1E	-sen.	.	.	.	.	.	.
.	.	.	.	4A/	.	.	.
.	.	.	.	4G/	.	.	.
.	.	.	.	4F/	.	.	.
=232	=232	=232	=232	=232	=232	=232	=232
2r	.	2G/	Ma-	0E	-sen.	0r	.
2C/	Ma-	2G/	-nas-	.	.	.	.
2C/	-nas-	[1G	-ses	.	.	.	.
2C/	-ses	.	.	.	.	.	.
=233	=233	=233	=233	=233	=233	=233	=233
1C	au-	2G/]	.	0r	.	0r	.
.	.	2.A/	au-	.	.	.	.
2.D\	.	.	.	.	.	.	.
.	.	4G/	.	.	.	.	.
.	.	2A/	.	.	.	.	.
4C/	.	.	.	.	.	.	.
=234	=234	=234	=234	=234	=234	=234	=234
2D\	.	2B\	-tem	0r	.	0r	.
2E\	-tem	1c	ge-	.	.	.	.
1F	ge-	.	.	.	.	.	.
.	.	4B\	-nu-	.	.	.	.
.	.	4A/	.	.	.	.	.
=235	=235	=235	=235	=235	=235	=235	=235
2E\	-nu-	4c\	-it	0r	.	0r	.
.	.	4B\	.	.	.	.	.
2C/	-it	1c	A-	.	.	.	.
1D	A-	.	.	.	.	.	.
.	.	4B\	.	.	.	.	.
.	.	4A/	.	.	.	.	.
=236	=236	=236	=236	=236	=236	=236	=236
[0E	-mon.	2c\	.	1r	.	0r	.
.	.	2B\	.	.	.	.	.
.	.	1G	-mon.	2r	.	.	.
.	.	.	.	2B\	A-	.	.
=237	=237	=237	=237	=237	=237	=237	=237
0E]	.	1r	.	2c\	-mon	0r	.
.	.	.	.	2.B\	au-	.	.
.	.	2r	.	.	.	.	.
.	.	.	.	4A/	.	.	.
.	.	2E/	A-	4B\	.	.	.
.	.	.	.	4c\	.	.	.
=238	=238	=238	=238	=238	=238	=238	=238
0r	.	2F/	-mon	2d\	.	0r	.
.	.	2.E/	au-	2G/	-tem	.	.
.	.	.	.	2r	.	.	.
.	.	4D/	.	.	.	.	.
.	.	4E/	.	2G/	ge-	.	.
.	.	4F/	.	.	.	.	.
=239	=239	=239	=239	=239	=239	=239	=239
0r	.	2G/	.	2B\	.	0r	.
.	.	2C/	-tem	2c\	-nu-	.	.
.	.	2r	.	2.d\	-it	.	.
.	.	2G/	ge-	.	.	.	.
.	.	.	.	4c\	.	.	.
=240	=240	=240	=240	=240	=240	=240	=240
0r	.	2B\	.	2d\	.	0r	.
.	.	2c\	-nu-	2e\	Io-	.	.
.	.	2.d\	-it	2d\	-si-	.	.
.	.	.	.	[2B\	.	.	.
.	.	4c\	.	.	.	.	.
=241	=241	=241	=241	=241	=241	=241	=241
0r	.	2d\	.	4B\]	.	0r	.
.	.	.	.	4A/	.	.	.
.	.	2.e\	Io-	2.c\	.	.	.
.	.	4d\	.	4B\	.	.	.
.	.	2B\	.	2G/	.	.	.
=242	=242	=242	=242	=242	=242	=242	=242
0r	.	1c	-si	2A/	.	0r	.
.	.	.	.	2.E/	-am.	.	.
.	.	1B	-am.	.	.	.	.
.	.	.	.	4D/	.	.	.
.	.	.	.	4E/	.	.	.
.	.	.	.	4F/	.	.	.
=243	=243	=243	=243	=243	=243	=243	=243
*M3/1	*	*M3/1	*	*M3/1	*	*M3/1	*
*met(3)	*	*met(3)	*	*met(3)	*	*met(3)	*
0C	Io-	0E	Io-	1G	Io-	0.r	.
.	.	.	.	1G	-si-	.	.
1C	-si-	1E	-si-	1G	-as	.	.
=244	=244	=244	=244	=244	=244	=244	=244
1C	-as	1E	-as	0G	au-	0.r	.
0C	au-	0E	au-	.	.	.	.
.	.	.	.	[1A	-tem	.	.
=245	=245	=245	=245	=245	=245	=245	=245
1.D	-tem	1.F	-tem	2A/]	.	0.r	.
.	.	.	.	2G/	.	.	.
.	.	.	.	1A	ge-	.	.
2C/	.	2E/	.	.	.	.	.
1D	ge-	1F	ge-	1B	.	.	.
=246	=246	=246	=246	=246	=246	=246	=246
1E	.	1G	.	0c	.	0.r	.
0F	.	0A	.	.	.	.	.
.	.	.	.	2B\	-nu-	.	.
.	.	.	.	2A/	.	.	.
=247	=247	=247	=247	=247	=247	=247	=247
1E	-nu-	1B	-nu-	0G	-it	0.r	.
0C	-it	0E	-it	.	.	.	.
.	.	.	.	1G	Ie-	.	.
=248	=248	=248	=248	=248	=248	=248	=248
1C	Ie-	1E	Ie-	1A	-cho-	0.r	.
1D	-cho-	1F	-cho-	1B	-ni-	.	.
1E	-ni-	1G	-ni-	[1G	-am	.	.
=249	=249	=249	=249	=249	=249	=249	=249
0C	-am	0E	-am	1G]	.	0.r	.
.	.	.	.	1G	et	.	.
1C	et	1E	et	1A	fra-	.	.
=250	=250	=250	=250	=250	=250	=250	=250
1BB	fra-	1D	fra-	1G	-tres	0.r	.
1C	-tres	1E	-tres	0A	e-	.	.
[1D	e-	[1F	e-	.	.	.	.
=251	=251	=251	=251	=251	=251	=251	=251
1D]	.	2F/]	.	0B	-ius	0.r	.
.	.	4E/	.	.	.	.	.
.	.	4F/	.	.	.	.	.
0E	-ius	0G	-ius	.	.	.	.
.	.	.	.	1r	.	.	.
=252	=252	=252	=252	=252	=252	=252	=252
1F	in	1c	in	1A	in	0.r	.
1F	trans-	1c	trans-	1A	trans-	.	.
1E	-mi-	1c	-mi-	1G	-mi-	.	.
=253	=253	=253	=253	=253	=253	=253	=253
1F	-gra-	1c	-gra-	1A	-gra-	0.r	.
1E	-ti-	1c	-ti-	1G	-ti-	.	.
1F	-o-	1c	-o-	1A	-o-	.	.
=254	=254	=254	=254	=254	=254	=254	=254
1C	-ne	1c	-ne	1G	-ne	0.r	.
1D	.	1B	.	1F	.	.	.
1E	Ba-	1c	Ba-	1G	Ba-	.	.
=255	=255	=255	=255	=255	=255	=255	=255
1.F	.	1.d	.	1.A	.	0.r	.
2E\	-by-	2c\	-by-	2G/	-by-	.	.
1D	-lo-	2B\	-lo-	2F/	-lo-	.	.
.	.	2A/	.	2E/	.	.	.
=256	=256	=256	=256	=256	=256	=256	=256
1C	.	0A	.	0E	.	0.r	.
0BB	.	.	.	.	.	.	.
.	.	1G#i	.	1D	.	.	.
=257	=257	=257	=257	=257	=257	=257	=257
0AA	-nis,	1A	-nis,	0E	-nis,	0.r	.
.	.	1c	.	.	.	.	.
1E	Ba-	1B	Ba-	1G	Ba-	.	.
=258	=258	=258	=258	=258	=258	=258	=258
1.F	.	1.d	.	1.A	.	0.r	.
2E\	-by-	2c\	-by-	2G/	-by-	.	.
1D	-lo-	2B\	-lo-	2F/	-lo-	.	.
.	.	2A/	.	2E/	.	.	.
=259	=259	=259	=259	=259	=259	=259	=259
1C	.	0A	.	0E	.	0.r	.
0BB	.	.	.	.	.	.	.
.	.	1G#i	.	1D	.	.	.
=260	=260	=260	=260	=260	=260	=260	=260
0.AAl	-nis.	0.Al	-nis.	0.El	-nis.	0.r	.
!!LO:LB:i:g=z
=261||	=261||	=261||	=261||	=261||	=261||	=261||	=261||
*>C	*	*>C	*	*>C	*	*>C	*
*clefF4	*	*clefGv2	*	*clefGv2	*	*clefG2	*
*k[]	*	*k[]	*	*k[]	*	*k[]	*
*M2/1	*	*M2/1	*	*M2/1	*	*M2/1	*
*met(C|)	*	*met(C|)	*	*met(C|)	*	*met(C|)	*
!!!OMD: Tertia pars: Et post transmigrationem
!!section: Tertia pars: Et post transmigrationem
0r	.	0r	.	0A	Et	0r	.
=262	=262	=262	=262	=262	=262	=262	=262
0AA	Et	0r	.	[0c	post	0r	.
=263	=263	=263	=263	=263	=263	=263	=263
0C	post	0r	.	1.c]	.	0e	Et
.	.	.	.	2d\	.	.	.
=264	=264	=264	=264	=264	=264	=264	=264
1.C	trans-	0E	Et	0e	.	0g	post
2C/	-mi-	.	.	.	.	.	.
=265	=265	=265	=265	=265	=265	=265	=265
1C	-gra-	0G	post	1.e	trans-	1.g	trans-
1C	-ti-	.	.	.	.	.	.
.	.	.	.	2e\	-mi-	2g/	-mi-
=266	=266	=266	=266	=266	=266	=266	=266
[0C	-o-	1.G	trans-	1e	-gra-	1g	-gra-
.	.	.	.	1e	-ti-	1c	-ti-
.	.	2G/	-mi-	.	.	.	.
=267	=267	=267	=267	=267	=267	=267	=267
0C]	.	1G	-gra-	1.e	-o-	0cc	-o-
.	.	1G	-ti-	.	.	.	.
.	.	.	.	2c\	.	.	.
=268	=268	=268	=268	=268	=268	=268	=268
0GG	-nem	0G	-o-	2.e\	.	0b	-nem
.	.	.	.	4f\	.	.	.
.	.	.	.	1d	.	.	.
=269	=269	=269	=269	=269	=269	=269	=269
1.AA	Ba-	1E	-nem	0c	-nem	1r	.
.	.	[1F	Ba-	.	.	[1a	Ba-
2FF/	.	.	.	.	.	.	.
=270	=270	=270	=270	=270	=270	=270	=270
1FF	-by-	1F]	.	1.c	Ba-	1a]	.
[1C	-lo-	[1E	-by-	.	.	1g	-by-
.	.	.	.	2B\	-by-	.	.
=271	=271	=271	=271	=271	=271	=271	=271
1C]	.	1E]	.	1A	-lo-	1a	-lo-
1BB	.	1D	-lo-	1G	.	1b	.
=272	=272	=272	=272	=272	=272	=272	=272
0AA	.	1.E	.	1A	.	0cc	.
.	.	.	.	[1E	.	.	.
.	.	2F/	.	.	.	.	.
=273	-nis	=273	=273	=273	=273	=273	=273
[0GG	.	[0G	-nis	2E/]	.	[0b	-nis
.	.	.	.	2D/	.	.	.
.	.	.	.	1D	-nis	.	.
=274	=274	=274	=274	=274	=274	=274	=274
0GG]	.	0G_	.	2r	.	0b_	.
.	.	.	.	2D/	Ie-	.	.
.	.	.	.	2D/	-cho-	.	.
.	.	.	.	2D/	-ni-	.	.
=275	=275	=275	=275	=275	=275	=275	=275
1r	.	0G]	.	1E	-as,	0b]	.
1GG	Ie-	.	.	2D/	Ie-	.	.
.	.	.	.	[2G/	-cho-	.	.
=276	=276	=276	=276	=276	=276	=276	=276
1GG	-cho-	1r	.	4G/]	.	1g	Ie-
.	.	.	.	4A/	.	.	.
.	.	.	.	4B\	.	.	.
.	.	.	.	4c\	.	.	.
1GG	-ni-	1G	Ie-	2d\	.	1g	-cho-
.	.	.	.	2B\	-ni-	.	.
=277	=277	=277	=277	=277	=277	=277	=277
1.C	.	1G	-cho-	2.c\	-as	1g	-ni-
.	.	.	.	4d\	.	.	.
.	.	1G	-ni-	1e	.	1cc	.
2D\	.	.	.	.	.	.	.
=278	=278	=278	=278	=278	=278	=278	=278
1E	-as	1G	-as	2r	.	2b\	.
.	.	.	.	1e	ge-	1cc	.
1AA	.	1A	.	.	.	.	.
.	.	.	.	2c\	.	4b\	.
.	.	.	.	.	.	4a/	.
=279	=279	=279	=279	=279	=279	=279	=279
1r	.	1G	ge-	2d\	.	1b	.
.	.	.	.	1e	.	.	.
1AA	ge-	[1A	.	.	.	1e	-as
.	.	.	.	[2E/	.	.	.
=280	=280	=280	=280	=280	=280	=280	=280
1.C	.	2A/]	.	2E/]	.	1r	.
.	.	2G/	-nu-	2E/	-nu-	.	.
.	.	[1G	-it	1E	-it,	1cc	ge-
2D\	-nu-	.	.	.	.	.	.
=281	=281	=281	=281	=281	=281	=281	=281
1E	-it	1G]	.	2r	.	2b\	.
.	.	.	.	1e	ge-	1cc	.
2r	.	1A	Sa-	.	.	.	.
2AA/	Sa-	.	.	2e\	-nu-	4b\	.
.	.	.	.	.	.	4a/	.
=282	=282	=282	=282	=282	=282	=282	=282
1E	-la-	2G/	-la-	1e	-it	2b\	.
.	.	2E/	.	.	.	2cc\	-nu-
1D	-thi-	1F	-thi-	2A/	Sa-	4dd\	-it
.	.	.	.	.	.	4cc\	.
.	.	.	.	2d\	.	4b\	.
.	.	.	.	.	.	4a/	.
=283	=283	=283	=283	=283	=283	=283	=283
1E	-el,	0E	-el.	2B\	-la-	1g	.
.	.	.	.	1c	.	.	.
2r	.	.	.	.	.	2r	.
2AA/	Sa-	.	.	4B\	.	2a/	Sa-
.	.	.	.	4A/	.	.	.
=284	=284	=284	=284	=284	=284	=284	=284
1E	-la-	0r	.	2B\	.	2g/	-la-
.	.	.	.	2c\	-thi-	2e/	.
1D	-thi-	.	.	4d\	-el.	1f	-thi-
.	.	.	.	4c\	.	.	.
.	.	.	.	4B\	.	.	.
.	.	.	.	4A/	.	.	.
=285	=285	=285	=285	=285	=285	=285	=285
0E	-el.	2r	.	0G	.	1e	-el.
.	.	2B\	Sa-	.	.	.	.
.	.	2B\	-la-	.	.	2r	.
.	.	2B\	-thi-	.	.	2e/	Sa-
=286	=286	=286	=286	=286	=286	=286	=286
0r	.	4c\	-el	0r	.	2e/	-la-
.	.	4B\	.	.	.	.	.
.	.	4A/	.	.	.	2e/	-thi-
.	.	4G/	.	.	.	.	.
.	.	2A/	.	.	.	[1f	-el
.	.	4B\	au-	.	.	.	.
.	.	4A/	.	.	.	.	.
=287	=287	=287	=287	=287	=287	=287	=287
0r	.	4B\	.	0r	.	2f/]	.
.	.	4A/	.	.	.	.	.
.	.	1d	.	.	.	4e/	au-
.	.	.	.	.	.	4d/	.
.	.	.	.	.	.	1e	-tem
.	.	2c#i\	.	.	.	.	.
=288	=288	=288	=288	=288	=288	=288	=288
0r	.	1d	-tem	0r	.	2d/	ge-
.	.	.	.	.	.	2f/	.
.	.	2B\	ge-	.	.	2g/	-nu-
.	.	2c\	-nu-	.	.	2a/	-it
=289	=289	=289	=289	=289	=289	=289	=289
0r	.	1d	-it	0r	.	2r	.
.	.	.	.	.	.	2a/	Zo-
.	.	2r	.	.	.	2.dd\	-ro-
.	.	2d\	Zo-	.	.	.	.
.	.	.	.	.	.	4b\	.
=290	=290	=290	=290	=290	=290	=290	=290
0r	.	2e\	-ro-	0r	.	2cc\	.
.	.	2B\	.	.	.	1b	.
.	.	1c	-ba-	.	.	.	.
.	.	.	.	.	.	2a/	-ba-
=291	=291	=291	=291	=291	=291	=291	=291
0r	.	0B	-bel,	1r	.	2b\	-bel,
.	.	.	.	.	.	2d/	Zo-
.	.	.	.	2r	.	2.g/	-ro-
.	.	.	.	2G/	Zo-	.	.
.	.	.	.	.	.	4e/	.
=292	=292	=292	=292	=292	=292	=292	=292
0r	.	0r	.	2A/	-ro-	2f/	.
.	.	.	.	2E/	.	1e	.
.	.	.	.	1F	-ba-	.	.
.	.	.	.	.	.	2d/	-ba-
=293	=293	=293	=293	=293	=293	=293	=293
1r	.	2r	.	0E	-bel,	0e	-bel,
.	.	2G/	Zo-	.	.	.	.
2r	.	2.c\	-ro-	.	.	.	.
2C/	Zo-	.	.	.	.	.	.
.	.	4A/	.	.	.	.	.
=294	=294	=294	=294	=294	=294	=294	=294
2D\	-ro-	2B\	.	0r	.	0r	.
2AA/	.	1A	.	.	.	.	.
1BB	-ba-	.	.	.	.	.	.
.	.	2G#i/	-ba-	.	.	.	.
=295	=295	=295	=295	=295	=295	=295	=295
0AA	-bel,	0A	-bel,	1r	.	2r	.
.	.	.	.	.	.	2c/	Zo-
.	.	.	.	2r	.	2.cc\	-ro-
.	.	.	.	2c\	Zo-	.	.
.	.	.	.	.	.	4a/	.
=296	=296	=296	=296	=296	=296	=296	=296
0r	.	0r	.	2d\	-ro-	2b\	.
.	.	.	.	2A/	.	1a	.
.	.	.	.	1B	-ba-	.	.
.	.	.	.	.	.	2g#i/	-ba-
=297	=297	=297	=297	=297	=297	=297	=297
1r	.	2r	.	0A	-bel,	0a	-bel,
.	.	2c\	Zo-	.	.	.	.
2r	.	2.f\	-ro-	.	.	.	.
2F\	Zo-	.	.	.	.	.	.
.	.	4d\	.	.	.	.	.
=298	=298	=298	=298	=298	=298	=298	=298
2G\	-ro-	2e\	.	0r	.	0r	.
2D\	.	1d	.	.	.	.	.
1E	-ba-	.	.	.	.	.	.
.	.	2c#i\	-ba-	.	.	.	.
=299	=299	=299	=299	=299	=299	=299	=299
0D	-bel.	0d	-bel.	2r	.	1r	.
.	.	.	.	2D/	Zo-	.	.
.	.	.	.	2.f\	-ro-	2r	.
.	.	.	.	.	.	2f/	Zo-
.	.	.	.	4d\	.	.	.
=300	=300	=300	=300	=300	=300	=300	=300
0r	.	0r	.	2e\	.	2g/	-ro-
.	.	.	.	1d	.	2d/	.
.	.	.	.	.	.	1e	-ba-
.	.	.	.	2c#i\	-ba-	.	.
=301	=301	=301	=301	=301	=301	=301	=301
2r	.	1r	.	0d	-bel.	0d	-bel.
2G\	Zo-	.	.	.	.	.	.
2G\	-ro-	2r	.	.	.	.	.
2G\	-ba-	2G/	Zo-	.	.	.	.
=302	=302	=302	=302	=302	=302	=302	=302
2E\	-bel	2G/	-ro-	0r	.	0r	.
1C	au-	2G/	-ba-	.	.	.	.
.	.	4A/	-bel	.	.	.	.
.	.	4G/	.	.	.	.	.
4BB/	.	2c\	.	.	.	.	.
4AA/	.	.	.	.	.	.	.
=303	=303	=303	=303	=303	=303	=303	=303
2GG/	.	4B\	au-	0r	.	0r	.
.	.	4A/	.	.	.	.	.
2AA/	-tem	1A	.	.	.	.	.
1BB	ge-	.	.	.	.	.	.
.	.	2G#i/	.	.	.	.	.
=304	=304	=304	=304	=304	=304	=304	=304
2AA/	-nu-	1A	-tem	0r	.	0r	.
2.C/	-it	.	.	.	.	.	.
.	.	2G/	ge-	.	.	.	.
4BB/	.	.	.	.	.	.	.
4C/	.	[2A/	.	.	.	.	.
4D\	.	.	.	.	.	.	.
=305	=305	=305	=305	=305	=305	=305	=305
1GG	A-	4A/]	.	0r	.	0r	.
.	.	4B\	.	.	.	.	.
.	.	2.G/	.	.	.	.	.
1AA	.	.	.	.	.	.	.
.	.	4E/	-nu-	.	.	.	.
.	.	2F/	-it	.	.	.	.
=306	=306	=306	=306	=306	=306	=306	=306
2GG/	.	2G/	A-	0r	.	0r	.
2.G\	-bi-	2.E/	-bi-	.	.	.	.
4E\	.	4C/	.	.	.	.	.
2F\	.	2D/	.	.	.	.	.
=307	=307	=307	=307	=307	=307	=307	=307
2G\	.	2E/	.	0r	.	0r	.
2.E\	.	2G/	.	.	.	.	.
.	.	1F	.	.	.	.	.
4C/	.	.	.	.	.	.	.
2D\	.	.	.	.	.	.	.
=308	=308	=308	=308	=308	=308	=308	=308
*	*	*M3/1	*	*	*	*	*
*	*	*met(3)	*	*	*	*	*
!	!	!LO:N:vis=0.	!	!	!	!	!
1.E	.	0E	-ud.	0r	.	0r	.
2AA/	.	.	.	.	.	.	.
=309	=309	=309	=309	=309	=309	=309	=309
*M3/1	*	*	*	*M3/1	*	*M3/1	*
*met(3)	*	*	*	*met(3)	*	*met(3)	*
0.AA	-ud.	1r	.	0c	A-	0e	A-
.	.	0A	A-	.	.	.	.
.	.	.	.	1c	-bi-	1e	-bi-
=310	=310	=310	=310	=310	=310	=310	=310
0.r	.	1A	-bi-	1c	-ud	1.f	-ud
.	.	1.B	-ud	1.d	.	.	.
.	.	.	.	.	.	2d/	au-
.	.	.	.	.	.	1d	-tem
.	.	2G/	au-	2B\	au-	.	.
=311	=311	=311	=311	=311	=311	=311	=311
0.r	.	1G	-tem	1B	-tem	1e	ge-
.	.	1A	.	1c	.	1f	.
.	.	1B	.	1d	.	[1g	.
=312	=312	=312	=312	=312	=312	=312	=312
0.r	.	0c	ge-	0e	ge-	1g]	.
.	.	.	.	.	.	1e	.
.	.	1A	.	1c	.	1f	.
=313	=313	=313	=313	=313	=313	=313	=313
0.r	.	1B	-nu-	1d	-nu-	1.g	.
.	.	0c	-it	0e	-it	.	.
.	.	.	.	.	.	2g/	-nu-
.	.	.	.	.	.	1g	-it
=314	=314	=314	=314	=314	=314	=314	=314
0.r	.	1c	E-	1A	E-	0a	E-
.	.	0d	.	0f	.	.	.
.	.	.	.	.	.	1b-i	.
=315	=315	=315	=315	=315	=315	=315	=315
0.r	.	1c	-li-	1e	-li-	1a	-li-
.	.	0B-i	-a-	1.d	.	2g/	.
.	.	.	.	.	.	1f	.
.	.	.	.	2c\	-a-	4e/	a-
.	.	.	.	.	.	4d/	.
=316	=316	=316	=316	=316	=316	=316	=316
0.r	.	0A	-chim.	0e	-chim.	0.c	-chim.
.	.	1A	E-	1r	.	.	.
=317	=317	=317	=317	=317	=317	=317	=317
1C	E-	1G	-li-	1E	E-	0.r	.
1C	-li-	1G	-a-	1E	-li-	.	.
1C	-a-	[1A	-chim	1E	-a-	.	.
=318	=318	=318	=318	=318	=318	=318	=318
1D	-chim	1A]	.	1F	-chim	0.r	.
0E	au-	0G	au-	0C	au-	.	.
=319	=319	=319	=319	=319	=319	=319	=319
0F	-tem	0A	-tem	0c	-tem	0.r	.
[1C	ge-	[1G	ge-	1r	.	.	.
=320	=320	=320	=320	=320	=320	=320	=320
2C/]	.	2G/]	.	0c	ge-	0.r	.
2D\	.	2F/	.	.	.	.	.
1E	.	1G	.	.	.	.	.
1F	-nu-	1A	-nu-	1c	-nu-	.	.
=321	=321	=321	=321	=321	=321	=321	=321
1G	-it	1E	it-	1B	-it	0.r	.
0A	A-	0F	A-	0d	A-	.	.
=322	=322	=322	=322	=322	=322	=322	=322
0.AA	-zor.	0E	-zor.	0c	-zor.	0.r	.
.	.	1r	.	1r	.	.	.
=323	=323	=323	=323	=323	=323	=323	=323
1r	.	0E	A-	0C	A-	0.r	.
0AA	A-	.	.	.	.	.	.
.	.	[1F	-zor	1C	-zor	.	.
=324	=324	=324	=324	=324	=324	=324	=324
1.BB	-zor	2F/]	.	1.D	au-	0.r	.
.	.	2D/	.	.	.	.	.
.	.	1D	au-	.	.	.	.
2GG/	.	.	.	2BB/	.	.	.
1GG	au-	1E	.	1BB	-tem	.	.
=325	=325	=325	=325	=325	=325	=325	=325
1AA	-tem	1F	-tem	1C	ge-	0.r	.
1BB	.	0G	ge-	1D	.	.	.
[1C	ge-	.	.	[1E	.	.	.
=326	=326	=326	=326	=326	=326	=326	=326
1C]	.	1E	.	1E]	.	0.r	.
1AA	.	1F	.	1C	.	.	.
1BB	.	[1G	.	1D	.	.	.
=327	=327	=327	=327	=327	=327	=327	=327
1.C	.	2G/]	.	1.E	.	0.r	.
.	.	2G/	-nu-	.	.	.	.
.	.	1.G	-it	.	.	.	.
2C/	-nu-	.	.	2E/	-nu-	.	.
1C	-it	.	.	1E	-it	.	.
.	.	2E/	.	.	.	.	.
=328	=328	=328	=328	=328	=328	=328	=328
1AA	Sa-	2F/	Sa-	1C	Sa-	0.r	.
.	.	2E/	.	.	.	.	.
0BB-i	.	2G/	.	1.D	.	.	.
.	.	1F	.	.	.	.	.
.	.	4E/	.	2C/	.	.	.
.	.	4D/	.	.	.	.	.
=329	=329	=329	=329	=329	=329	=329	=329
*M2/1	*	*M2/1	*	*M2/1	*	*M2/1	*
*met(C|)	*	*met(C|)	*	*met(C|)	*	*met(C|)	*
1AA	-doch.	0C	-doch.	[0E	-doch.	0r	.
2r	.	.	.	.	.	.	.
2AA/	Sa-	.	.	.	.	.	.
=330	=330	=330	=330	=330	=330	=330	=330
1E	-doch	2r	.	0E]	.	0r	.
.	.	2G/	Sa-	.	.	.	.
1AA	au-	2A/	-doch	.	.	.	.
.	.	[2c\	au-	.	.	.	.
=331	=331	=331	=331	=331	=331	=331	=331
0E	-tem	4c\]	.	2r	.	1r	.
.	.	4B\	.	.	.	.	.
.	.	4c\	.	1e	Sa-	.	.
.	.	4A/	.	.	.	.	.
.	.	1B	.	.	.	1g	Sa-
.	.	.	.	2e\	-doch	.	.
=332	=332	=332	=332	=332	=332	=332	=332
2r	.	0A	-tem	1e	au-	2a/	-doch
1AA	ge-	.	.	.	.	2.cc\	au-
.	.	.	.	1e	-tem	.	.
.	.	.	.	.	.	4b\	.
2AA/	-nu-	.	.	.	.	4cc\	.
.	.	.	.	.	.	4a/	.
=333	=333	=333	=333	=333	=333	=333	=333
1E	-it	2r	.	2r	.	1b	.
.	.	2G/	ge-	2B\	ge-	.	.
1AA	A-	2.A/	.	1c	-nu-	1a	-tem
.	.	4G/	-nu-	.	.	.	.
=334	=334	=334	=334	=334	=334	=334	=334
1E	-chim.	2E/	-it	1B	-it	2r	.
.	.	2G/	.	.	.	2g/	ge-
1r	.	1F	A-	2r	.	[1a	.
.	.	.	.	2A/	A-	.	.
=335	=335	=335	=335	=335	=335	=335	=335
1AA	A-	1E	-chim.	2.c\	-chim	2a/]	.
.	.	.	.	.	.	4g/	-nu-
.	.	.	.	4d\	.	4f/	.
1C	-chim	2r	.	1e	.	2e/	-it
.	.	2E/	A-	.	.	2g/	.
=336	=336	=336	=336	=336	=336	=336	=336
1D	au-	2F/	.	2r	.	1f	A-
.	.	2D/	-chim	2A/	A-	.	.
1C	-tem	2.E/	au-	1c	-chim	1e	-chim.
.	.	4F/	.	.	.	.	.
=337	=337	=337	=337	=337	=337	=337	=337
2r	.	1G	-tem	1d	au-	2r	.
2GG/	ge-	.	.	.	.	2b\	A-
1AA	-nu-	2.E/	ge-	1c	-tem	2cc\	.
.	.	.	.	.	.	2a/	-chim.
.	.	4F/	.	.	.	.	.
=338	=338	=338	=338	=338	=338	=338	=338
1GG	-it	2G/	.	2r	.	2.b\	au-
.	.	2G/	-nu-	1d	ge-	.	.
.	.	.	.	.	.	4cc\	.
2r	.	2.G/	-it	.	.	1dd	-tem
[2G\	E-	.	.	2d\	-nu-	.	.
.	.	4A/	.	.	.	.	.
=339	=339	=339	=339	=339	=339	=339	=339
2G\]	.	2B\	.	2d\	-it	1g	ge-
2E\	.	2c\	E-	2e\	E-	.	.
1F	-li-	2.A/	-li-	2.c\	-li-	1a	-nu-
.	.	4B\	.	4d\	.	.	.
=340	=340	=340	=340	=340	=340	=340	=340
0E	-ud.	2c\	.	0e	-ud.	1g	-it
.	.	2B\	.	.	.	.	.
.	.	4c\	.	.	.	2r	.
.	.	4B\	.	.	.	.	.
.	.	4c\	.	.	.	[2g/	E-
.	.	4B\	.	.	.	.	.
=341	=341	=341	=341	=341	=341	=341	=341
0r	.	4c\	.	0r	.	2g/]	.
.	.	4B\	.	.	.	.	.
.	.	2.e\	.	.	.	2e/	.
.	.	.	.	.	.	1f	-li-
.	.	4c\	.	.	.	.	.
.	.	2d\	.	.	.	.	.
=342	=342	=342	=342	=342	=342	=342	=342
2r	.	0e	-ud.	1r	.	1e	.
2AA/	E-	.	.	.	.	.	.
2AA/	-li-	.	.	2r	.	1e	-ud.
[2C/	.	.	.	2E/	E-	.	.
=343	=343	=343	=343	=343	=343	=343	=343
4C/]	.	0r	.	2E/	-li-	0r	.
4BB/	.	.	.	.	.	.	.
1E	-ud	.	.	2.G/	.	.	.
.	.	.	.	4E/	.	.	.
2D\	au-	.	.	[2B\	-ud	.	.
=344	=344	=344	=344	=344	=344	=344	=344
0E	-tem	2r	.	4B\]	.	2.g/	ge-
.	.	.	.	4G/	.	.	.
.	.	2.e\	ge-	2c\	au-	.	.
.	.	.	.	.	.	4g/	-nu-
.	.	.	.	2B\	,	2g/	-it
.	.	4e\	-nu-	.	.	.	.
.	.	2e\	-it	2E/	-tem	2g/	E-
=345	=345	=345	=345	=345	=345	=345	=345
0r	.	2f\	E-	0r	.	2a/	-le-
.	.	2.e\	-le-	.	.	2e/	.
.	.	.	.	.	.	1f	-a-
.	.	4c\	.	.	.	.	.
.	.	2d\	-a-	.	.	.	.
=346	=346	=346	=346	=346	=346	=346	=346
2.C/	ge-	0e	-zar.	2r	.	0e	-zar.
.	.	.	.	2.c\	ge-	.	.
4C/	-nu-	.	.	.	.	.	.
2C/	-it	.	.	.	.	.	.
.	.	.	.	4c\	-nu-	.	.
2C/	E-	.	.	2c\	-it	.	.
=347	=347	=347	=347	=347	=347	=347	=347
2D\	-le-	0r	.	4B\	E-	0r	.
.	.	.	.	4A/	.	.	.
2AA/	.	.	.	1A	-le-	.	.
1BB	-a-	.	.	.	.	.	.
.	.	.	.	2G#i/	-a-	.	.
=348	=348	=348	=348	=348	=348	=348	=348
0AA	-zar.	1r	.	0A	-zar.	2r	.
.	.	.	.	.	.	2e/	E-
.	.	2r	.	.	.	2e/	-le-
.	.	2A/	E-	.	.	2e/	-a-
=349	=349	=349	=349	=349	=349	=349	=349
0r	.	2A/	-le-	0r	.	4f/	-zar
.	.	.	.	.	.	4e/	.
.	.	2A/	-a-	.	.	2a/	.
.	.	4B\	-zar	.	.	2g/	.
.	.	4A/	.	.	.	.	.
.	.	[2d\	au-	.	.	[2f/	au-
=350	=350	=350	=350	=350	=350	=350	=350
0r	.	4d\]	.	0r	.	2f/]	.
.	.	4c\	.	.	.	.	.
.	.	1c	.	.	.	2e/	.
.	.	.	.	.	.	1d	.
.	.	2B\	.	.	.	.	.
=351	=351	=351	=351	=351	=351	=351	=351
2r	.	0c	-tem	1r	.	0c	-tem
2.AA/	ge-	.	.	.	.	.	.
.	.	.	.	2r	.	.	.
4GG/	.	.	.	.	.	.	.
4AA/	.	.	.	[2E/	ge-	.	.
4BB/	.	.	.	.	.	.	.
=352	=352	=352	=352	=352	=352	=352	=352
2C/	.	0r	.	4E/]	.	0r	.
.	.	.	.	4D/	.	.	.
2C/	-nu-	.	.	4E/	.	.	.
.	.	.	.	4F/	.	.	.
[1C	-it	.	.	2G/	.	.	.
.	.	.	.	2A/	-nu-	.	.
=353	=353	=353	=353	=353	=353	=353	=353
2C/]	.	0r	.	2G/	-it	0r	.
2AA/	Mat-	.	.	2.A/	Mat-	.	.
1BB	.	.	.	.	.	.	.
.	.	.	.	4G#i/	.	.	.
.	.	.	.	4G#i/	.	.	.
.	.	.	.	4F#i/	.	.	.
=354	=354	=354	=354	=354	=354	=354	=354
0AA	-than.	2r	.	0A	-than.	1r	.
.	.	2.A/	ge-	.	.	.	.
.	.	.	.	.	.	2r	.
.	.	4G/	.	.	.	.	.
.	.	4A/	.	.	.	[2e/	ge-
.	.	4B\	.	.	.	.	.
=355	=355	=355	=355	=355	=355	=355	=355
0r	.	2c\	.	0r	.	4e/]	.
.	.	.	.	.	.	4d/	.
.	.	2c\	-nu-	.	.	4e/	.
.	.	.	.	.	.	4f/	.
.	.	[1c	-it	.	.	2g/	.
.	.	.	.	.	.	2a/	-nu-
=356	=356	=356	=356	=356	=356	=356	=356
0r	.	2c\]	.	0r	.	2g/	-it
.	.	2A/	.	.	.	2.a/	Mat-
.	.	1B	Mat-	.	.	.	.
.	.	.	.	.	.	4g#i/	.
.	.	.	.	.	.	4g#i/	.
.	.	.	.	.	.	4f#i/	.
=357	=357	=357	=357	=357	=357	=357	=357
0r	.	0A	-than.	1r	.	1a	-than.
.	.	.	.	1c	Mat-	2r	.
.	.	.	.	.	.	2e/	Ma-
=358	=358	=358	=358	=358	=358	=358	=358
1r	.	1D	Ma-	1d	-than	1f	-than
1AA	Ma-	1A	-than	1c	au-	1e	au-
=359	=359	=359	=359	=359	=359	=359	=359
1BB-i	-than	1D	au-	1d	-tem	2d/	-tem
.	.	.	.	.	.	2.f/	ge-
1AA	au-	1A	-tem	1c	ge-	.	.
.	.	.	.	.	.	4e/	.
.	.	.	.	.	.	[2a/	.
=360	=360	=360	=360	=360	=360	=360	=360
1BB-i	-tem	2r	.	1d	-nu-	2a/]	.
.	.	2D/	ge-	.	.	2g/	-nu-
1AA	ge-	2.E/	.	1c	-it	1a	-it
.	.	4F/	-nu-	.	.	.	.
=361	=361	=361	=361	=361	=361	=361	=361
2GG/	-nu-	2G/	-it	2B\	Ia-	2r	.
2FF/	--it	2A/	.	2A/	.	2a/	Ia-
1GG	Ia-	1G	Ia-	1B	.	1dd	.
=362	=362	=362	=362	=362	=362	=362	=362
0AA	-cob.	1E	-cob.	0A	-cob.	0cc	-cob.
.	.	2r	.	.	.	.	.
.	.	2E/	Ia-	.	.	.	.
=363	=363	=363	=363	=363	=363	=363	=363
1r	.	2F/	-cob	1r	.	1a	Ia-
.	.	2D/	au-	.	.	.	.
1AA	Ia-	2.E/	-tem	1A	Ia-	1cc	-cob
.	.	4F/	.	.	.	.	.
=364	=364	=364	=364	=364	=364	=364	=364
1E	-cob	1G	.	1B	-cob	2.b\	au-
.	.	.	.	.	.	4g/	.
1E	au-	1E	ge-	1c	au-	1g	-tem
=365	=365	=365	=365	=365	=365	=365	=365
1D	-tem	1F	.	1d	-tem	2r	.
.	.	.	.	.	.	2a/	ge-
1GG	ge-	[1G	.	1B	ge-	2.b\	.
.	.	.	.	.	.	4g/	-nu-
=366	=366	=366	=366	=366	=366	=366	=366
1C	-nu-	2G/]	.	1c	-nu-	2.g/	-it
.	.	2G/	-nu-	.	.	.	.
.	.	.	.	.	.	8a/L	.
.	.	.	.	.	.	8b/J	.
1C	-it	1G	-it	1e	-it	1cc	.
=367	=367	=367	=367	=367	=367	=367	=367
0D	Io-	0F	Io-	3%2.dV	Io-	2b\	Io-
.	.	.	.	.	.	1a	.
.	.	.	.	3A/	.	.	.
.	.	.	.	3%2BZ	.	.	.
.	.	.	.	.	.	4g/	.
.	.	.	.	.	.	4f/	.
=368	=368	=368	=368	=368	=368	=368	=368
0C	-seph,	0G	-seph,	0c	-seph,	0e	-seph,
=369	=369	=369	=369	=369	=369	=369	=369
1D	vi-	1F	vi-	1A	vi-	1r	.
1GG	-rum	1G	-rum	1B	.	1d	vi-
=370	=370	=370	=370	=370	=370	=370	=370
1C	Ma-	1E	Ma-	1c	.	2e/	-rum
.	.	.	.	.	.	2g/	.
1D	.	1F	.	1A	.	2f/	.
.	.	.	.	.	.	2a/	Ma-
=371	=371	=371	=371	=371	=371	=371	=371
0BB-	-ri-	0D	-ri-	3%2.B-iV	-rum	2g/	-ri-
.	.	.	.	.	.	1f	.
.	.	.	.	3F/	.	.	.
.	.	.	.	3%2GZ	.	.	.
.	.	.	.	.	.	4e/	.
.	.	.	.	.	.	4d/	.
=372	=372	=372	=372	=372	=372	=372	=372
0AA	-e,	[0E	-e,	1A	Ma-	1.c	.
.	.	.	.	[1c	-ri-	.	.
.	.	.	.	.	.	2d/	.
=373	=373	=373	=373	=373	=373	=373	=373
0r	.	0E]	.	1c]	.	2e/	.
.	.	.	.	.	.	2f/	.
.	.	.	.	1B	.	1g	-e,
=374	=374	=374	=374	=374	=374	=374	=374
0E	de	0r	.	0B	-e,	1r	.
.	.	.	.	.	.	[1g	de
=375	=375	=375	=375	=375	=375	=375	=375
0G	qua	0E	de	0r	.	2g/]	.
.	.	.	.	.	.	2f/	.
.	.	.	.	.	.	1e	.
=376	=376	=376	=376	=376	=376	=376	=376
[0GG	na-	0G	qua	0B	de	1d	qua
.	.	.	.	.	.	[1dd	na-
=377	=377	=377	=377	=377	=377	=377	=377
1GG]	.	1r	.	0d	qua	2dd\]	.
.	.	.	.	.	.	2cc\	.
1GG	-tus	[1G	na-	.	.	1b	.
=378	=378	=378	=378	=378	=378	=378	=378
0D	est	1G]	.	1r	.	1.a	.
.	.	1F	-tus	[1d	na-	.	.
.	.	.	.	.	.	2f/	.
=379	=379	=379	=379	=379	=379	=379	=379
1r	.	0E	est	1d]	.	1g	.
1AA	Ie-	.	.	1c	-tus	1a	-tus
=380	=380	=380	=380	=380	=380	=380	=380
1BB	.	1r	.	0B	est	1d	est
1GG	.	1D	Ie-	.	.	2r	.
.	.	.	.	.	.	[2g/	Ie-
=381	=381	=381	=381	=381	=381	=381	=381
1.C	.	1.E	.	1r	.	4g/]	.
.	.	.	.	.	.	4f/	.
.	.	.	.	.	.	4e/	.
.	.	.	.	.	.	4d/	.
.	.	.	.	1A	Ie-	1e	.
2BB/	.	2F/	.	.	.	.	.
=382	=382	=382	=382	=382	=382	=382	=382
[0GG	-sus,	0G	-sus,	1.B	-sus,	0d	-sus,
.	.	.	.	2c\	.	.	.
=383	=383	=383	=383	=383	=383	=383	=383
0GG]	.	0G	qui	1d	.	1r	.
.	.	.	.	1d	qui	[1b	qui
=384	=384	=384	=384	=384	=384	=384	=384
1r	.	0G	vo-	1d	vo-	1b]	.
[1C	qui	.	.	[1e	-ca-	1g	vo-
=385	=385	=385	=385	=385	=385	=385	=385
1C]	.	0A	-ca-	1e]	.	1.cc	-ca-
1AA	vo-	.	.	1c	-tur	.	.
.	.	.	.	.	.	2a/	.
=386	=386	=386	=386	=386	=386	=386	=386
1D	-ca-	1F	-tur	1.d	Chri-	1a	-tur
[1GG	-tur	[1G	Chri-	.	.	[1b	Chri-
.	.	.	.	2B\	.	.	.
=387	=387	=387	=387	=387	=387	=387	=387
1GG]	.	1G]	.	0B	-stus,	2b\]	.
.	.	.	.	.	.	2g/	.
[1G	Chri-	1E	.	.	.	1g	-stus,
=388	=388	=388	=388	=388	=388	=388	=388
2G\]	.	[0El	-stus.	1r	.	2r	.
4F\	.	.	.	.	.	1g	Chri-
4E\	.	.	.	.	.	.	.
2E\	.	.	.	[1e	Chri-	.	.
[2C/	.	.	.	.	.	2e/	.
=389	=389	=389	=389	=389	=389	=389	=389
2C/]	.	0E_	.	2e\]	.	[0el	-stus.
4BB/	.	.	.	2c\	.	.	.
4AA/	.	.	.	.	.	.	.
1AA	-stus,	.	.	2.c\	.	.	.
.	.	.	.	4A/	.	.	.
=390	=390	=390	=390	=390	=390	=390	=390
2r	.	0E_	.	2c\	.	0e_	.
1GG	Chri-	.	.	1B	.	.	.
4FF/	.	.	.	2G/	.	.	.
4EE/	.	.	.	.	.	.	.
=391	=391	=391	=391	=391	=391	=391	=391
0EEl	-stus.	0E]	.	0Gl	-stus.	0e]	.
==	==	==	==	==	==	==	==
*-	*-	*-	*-	*-	*-	*-	*-
!!!RDF**kern: V=start of tuplet marker
!!!RDF**kern: Z=end of tuplet marker
!!!RDF**kern: l=long note in original notation
!!!RDF**kern: i=editorial accidental
!!!ENC: Jesse Rodin 2011/05/18
!!!END: 2011/05/18/
!!!EED: Jesse Rodin
!!!EEV: 2012/05/08/
!!attribution-level@Jos: 1 (secure, core group [checkmark])
!!!ONB: Translated from MusicXML and edited on 2011/08/10/ by Craig Sapp
!!muse2ps: u^(2) @{OTL2} (3) @{OTL3}^C^@{COM}\n@{SCT}^i2I150v90,90,90,120c122z18l2700t130
